%
( Use a Spoil Board, true and at least 5mm thick )
( Secure the sheet with clamps external to the profile )
( After the drilling, use self-tapping screws to secure the inside of the profile, leaving the clamps in place )
( Zero is the XY centre of the centre hole, with Z on top of the aluminium sheet )
( Aluminium stock is assumed to be 1050 grade, 1.5mm thick )

(Project BackPlate)
(Created by Estlcam version 10 build 10.012)
(Machining time about 00:13:36 hours)

(Required tools:)
(HSS Twist Drill, 3mm (R))
(HSS 1-Flute Endmill, 3.175mm)

G90
M03 S9000

G00 Z-25.0000


(No. 1: Drill Centre Hole)
G00 X0.0000 Y0.0000
G00 Z-0.5000
G01 Z2.0000 F300 S9000
G00 Z-0.5000
G00 Z1.5000
G01 Z2.5000
G00 Z-25.0000


(No. 2: Drill Middle Right Hole)
G00 X49.0000 Y0.0000 Z-25.0000
G00 Z-0.5000
G01 Z2.0000 F300
G00 Z-0.5000
G00 Z1.5000
G01 Z2.5000
G00 Z-25.0000


(No. 3: Drill PCB Lower Right Hole)
G00 X41.0000 Y7.3400 Z-25.0000
G00 Z-0.5000
G01 Z2.0000 F300
G00 Z-0.5000
G00 Z1.5000
G01 Z2.5000
G00 Z-25.0000


(No. 4: Drill Upper Right Hole)
G00 X49.0000 Y28.0000 Z-25.0000
G00 Z-0.5000
G01 Z2.0000 F300
G00 Z-0.5000
G00 Z1.5000
G01 Z2.5000
G00 Z-25.0000


(No. 5: Drill PCB Upper Right Hole)
G00 X37.5000 Y49.3400 Z-25.0000
G00 Z-0.5000
G01 Z2.0000 F300
G00 Z-0.5000
G00 Z1.5000
G01 Z2.5000
G00 Z-25.0000


(No. 6: Drill Top Hole)
G00 X0.0000 Y50.0000 Z-25.0000
G00 Z-0.5000
G01 Z2.0000 F300
G00 Z-0.5000
G00 Z1.5000
G01 Z2.5000
G00 Z-25.0000


(No. 7: Drill PCB Upper Left Hole)
G00 X-37.5000 Y49.3400 Z-25.0000
G00 Z-0.5000
G01 Z2.0000 F300
G00 Z-0.5000
G00 Z1.5000
G01 Z2.5000
G00 Z-25.0000


(No. 8: Drill Upper Left Hole)
G00 X-49.0000 Y28.0000 Z-25.0000
G00 Z-0.5000
G01 Z2.0000 F300
G00 Z-0.5000
G00 Z1.5000
G01 Z2.5000
G00 Z-25.0000


(No. 9: Drill PCB Lower Left Hole)
G00 X-41.0000 Y7.3400 Z-25.0000
G00 Z-0.5000
G01 Z2.0000 F300
G00 Z-0.5000
G00 Z1.5000
G01 Z2.5000
G00 Z-25.0000


(No. 10: Drill Middle Left Hole)
G00 X-49.0000 Y0.0000 Z-25.0000
G00 Z-0.5000
G01 Z2.0000 F300
G00 Z-0.5000
G00 Z1.5000
G01 Z2.5000
G00 Z-25.0000


(No. 11: Drill Lower Left Hole)
G00 X-49.0000 Y-28.0000 Z-25.0000
G00 Z-0.5000
G01 Z2.0000 F300
G00 Z-0.5000
G00 Z1.5000
G01 Z2.5000
G00 Z-25.0000


(No. 12: Drill Motor Upper Hole 1)
G00 X-40.8500 Y-27.2500 Z-25.0000
G00 Z-0.5000
G01 Z2.0000 F300
G00 Z-0.5000
G00 Z1.5000
G01 Z2.5000
G00 Z-25.0000


(No. 13: Drill Motor Lower Hole 1)
G00 X-40.8500 Y-45.2500 Z-25.0000
G00 Z-0.5000
G01 Z2.0000 F300
G00 Z-0.5000
G00 Z1.5000
G01 Z2.5000
G00 Z-25.0000


(No. 14: Drill Motor Upper Hole 2)
G00 X-5.8500 Y-27.2500 Z-25.0000
G00 Z-0.5000
G01 Z2.0000 F300
G00 Z-0.5000
G00 Z1.5000
G01 Z2.5000
G00 Z-25.0000


(No. 15: Drill Motor Lower Hole 2)
G00 X-5.8500 Y-45.2500 Z-25.0000
G00 Z-0.5000
G01 Z2.0000 F300
G00 Z-0.5000
G00 Z1.5000
G01 Z2.5000
G00 Z-25.0000


(No. 16: Drill Bottom Hole)
G00 X0.0000 Y-50.0000 Z-25.0000
G00 Z-0.5000
G01 Z2.0000 F300
G00 Z-0.5000
G00 Z1.5000
G01 Z2.5000
G00 Z-25.0000


(No. 17: Drill Motor Lower Hole 3)
G00 X5.8500 Y-45.2500 Z-25.0000
G00 Z-0.5000
G01 Z2.0000 F300
G00 Z-0.5000
G00 Z1.5000
G01 Z2.5000
G00 Z-25.0000


(No. 18: Drill Motor Upper Hole 3)
G00 X5.8500 Y-27.2500 Z-25.0000
G00 Z-0.5000
G01 Z2.0000 F300
G00 Z-0.5000
G00 Z1.5000
G01 Z2.5000
G00 Z-25.0000


(No. 19: Drill Motor Lower Hole 4)
G00 X40.8500 Y-27.2500 Z-25.0000
G00 Z-0.5000
G01 Z2.0000 F300
G00 Z-0.5000
G00 Z1.5000
G01 Z2.5000
G00 Z-25.0000


(No. 20: Drill Lower Right Hole)
G00 X49.0000 Y-28.0000 Z-25.0000
G00 Z-0.5000
G01 Z2.0000 F300
G00 Z-0.5000
G00 Z1.5000
G01 Z2.5000
G00 Z-25.0000


(No. 21: Drill Motor Lower Hole 4)
G00 X40.8500 Y-45.2500 Z-25.0000
G00 Z-0.5000
G01 Z2.0000 F300
G00 Z-0.5000
G00 Z1.5000
G01 Z2.5000
G00 Z-25.0000


(No. 22: Secure Workpiece with Screws)
G00 X56.0000 Y-61.0000 Z-25.0000
O100 sub
	G00 Z-25
	G00 X55
	G00 Y-250
O100 endsub

O110 sub
	M00
	G00 Y0
	G00 X0
O110 endsub

O100 call
(MSG,Secure the workpiece with screws.)
O110 call



(No. 23: Profile 1)
M05
T1 M06 (Change tool: HSS 1-Flute Endmill, 3.175mm)
M03
G00 X55.0000 Y-150.0000 Z-25.0000
G01 Z0.5000 F100 S12000
G01 X55.4363 Y-34.0204 F1000
G01 X55.4375 Y-33.9400
G01 Y33.9600
G03 X53.9623 Y35.5435 I-1.5875 J0.0000
G02 X47.1225 Y41.8571 I-0.1021 J6.7511
G01 X47.1075 Y42.3160
G01 Y53.3400
G03 X45.5000 Y54.9275 I-1.5877 J-0.0001
G01 X-45.5200
G03 X-47.1035 Y53.4523 I0.0000 J-1.5875
G01 X-47.1075 Y53.3200
G01 Y42.3160
G02 X-53.9019 Y35.5467 I-6.7469 J-0.0225
G03 X-55.4363 Y34.0204 I0.0519 J-1.5867
G01 X-55.4375 Y33.9400
G01 Y-33.9600
G01 X-55.4296 Y-34.1185
G03 X-53.9623 Y-35.5435 I1.5796 J0.1585
G02 X-47.1075 Y-42.3160 I0.1015 J-6.7525
G01 Y-53.3400
G01 X-47.0996 Y-53.4985
G03 X-45.5000 Y-54.9275 I1.5798 J0.1586
G01 X45.5200
G03 X47.1075 Y-53.3200 I-0.0001 J1.5877
G01 Y-42.3160
G01 X47.1225 Y-41.8571
G02 X53.9019 Y-35.5467 I6.7314 J-0.4349
G03 X55.4363 Y-34.0204 I-0.0519 J1.5867
G01 X55.0000 Y-150.0000
G00 Z-25.0000


(No. 24: Clear Chips 1)
G00 X56.0000 Y-71.0000 Z-25.0000
O200 sub
	O100 call
	(MSG,Clear chips / apply oil.)
	O110 call
O200 endsub

O200 call



(No. 25: Profile 2)
G00 X55.0000 Y-150.0000 Z-25.0000
G01 Z1.0000 F100
G01 X55.4371 Y-33.9668 F1000
G01 X55.4375 Y-33.9400
G01 Y33.9600
G03 X53.9623 Y35.5435 I-1.5875 J0.0000
G02 X47.1225 Y41.8571 I-0.1021 J6.7511
G01 X47.1075 Y42.3160
G01 Y53.3400
G03 X45.5000 Y54.9275 I-1.5877 J-0.0001
G01 X-45.5200
G03 X-47.1035 Y53.4523 I0.0000 J-1.5875
G01 X-47.1075 Y53.3200
G01 Y42.3160
G02 X-53.9019 Y35.5467 I-6.7469 J-0.0225
G03 X-55.4363 Y34.0204 I0.0519 J-1.5867
G01 X-55.4375 Y33.9400
G01 Y-33.9600
G01 X-55.4296 Y-34.1185
G03 X-53.9623 Y-35.5435 I1.5796 J0.1585
G02 X-47.1075 Y-42.3160 I0.1015 J-6.7525
G01 Y-53.3400
G01 X-47.0996 Y-53.4985
G03 X-45.5000 Y-54.9275 I1.5798 J0.1586
G01 X45.5200
G03 X47.1075 Y-53.3200 I-0.0001 J1.5877
G01 Y-42.3160
G01 X47.1225 Y-41.8571
G02 X53.9019 Y-35.5467 I6.7314 J-0.4349
G03 X55.4371 Y-33.9668 I-0.0516 J1.5860
G01 X55.0000 Y-150.0000
G00 Z-25.0000


(No. 26: Clear Chips 2)
G00 X56.0000 Y-81.0000 Z-25.0000
O200 call



(No. 27: Profile 3)
G00 X55.0000 Y-150.0000 Z-25.0000
G01 Z1.5000 F100
G01 X55.3927 Y-34.3344 F1000
G03 X55.4375 Y-33.9400 I-1.5627 J0.3772
G01 Y33.9600
G03 X53.9623 Y35.5435 I-1.5875 J0.0000
G02 X47.1225 Y41.8571 I-0.1021 J6.7511
G01 X47.1075 Y42.3160
G01 Y53.3400
G03 X45.5000 Y54.9275 I-1.5877 J-0.0001
G01 X-45.5200
G03 X-47.1035 Y53.4523 I0.0000 J-1.5875
G01 X-47.1075 Y53.3200
G01 Y42.3160
G02 X-53.9019 Y35.5467 I-6.7469 J-0.0225
G03 X-55.4363 Y34.0204 I0.0519 J-1.5867
G01 X-55.4375 Y33.9400
G01 Y-33.9600
G01 X-55.4296 Y-34.1185
G03 X-53.9623 Y-35.5435 I1.5796 J0.1585
G02 X-47.1075 Y-42.3160 I0.1015 J-6.7525
G01 Y-53.3400
G01 X-47.0996 Y-53.4985
G03 X-45.5000 Y-54.9275 I1.5798 J0.1586
G01 X45.5200
G03 X47.1075 Y-53.3200 I-0.0001 J1.5877
G01 Y-42.3160
G01 X47.1225 Y-41.8571
G02 X53.9019 Y-35.5467 I6.7314 J-0.4349
G03 X55.3927 Y-34.3344 I-0.0519 J1.5867
G01 X55.0000 Y-150.0000
G00 Z-25.0000


(No. 28: Clear Chips 3)
G00 X56.0000 Y-91.0000 Z-25.0000
O200 call



(No. 29: Profile 4)
G00 X55.0000 Y-150.0000 Z-25.0000
G01 Z2.0000 F100
G01 X55.4363 Y-34.0204 F1000
G01 X55.4375 Y-33.9400
G01 Y33.9600
G03 X53.9623 Y35.5435 I-1.5875 J0.0000
G02 X47.1225 Y41.8571 I-0.1021 J6.7511
G01 X47.1075 Y42.3160
G01 Y53.3400
G03 X45.5000 Y54.9275 I-1.5877 J-0.0001
G01 X-45.5200
G03 X-47.1035 Y53.4523 I0.0000 J-1.5875
G01 X-47.1075 Y53.3200
G01 Y42.3160
G02 X-53.9019 Y35.5467 I-6.7469 J-0.0225
G03 X-55.4363 Y34.0204 I0.0519 J-1.5867
G01 X-55.4375 Y33.9400
G01 Y-33.9600
G01 X-55.4296 Y-34.1185
G03 X-53.9623 Y-35.5435 I1.5796 J0.1585
G02 X-47.1075 Y-42.3160 I0.1015 J-6.7525
G01 Y-53.3400
G01 X-47.0996 Y-53.4985
G03 X-45.5000 Y-54.9275 I1.5798 J0.1586
G01 X45.5200
G03 X47.1075 Y-53.3200 I-0.0001 J1.5877
G01 Y-42.3160
G01 X47.1225 Y-41.8571
G02 X53.9019 Y-35.5467 I6.7314 J-0.4349
G03 X55.4363 Y-34.0204 I-0.0519 J1.5867
G01 X55.0000 Y-150.0000
G00 Z-25.0000
G00 X0.0000 Y0.0000

M05
M30
%

