%
( Zero is the XY centre of the centre hole, with Z on top of the box )
( The first hole to be milled is the button to be fitted at the bottom, right-hand-side )
( The second hole to be milled is the drainage / wire hole on the bottom of the box )
( The last hole to be milled is the button to be fitted at the bottom, left-hand-side )
( Workpiece is assumed to be the 120mm x 120mm Hammond enclosure, 3mm thick polycarbonate )
( Remember to make sure that Estlcam is in Climb Milling mode ! )

(Project Enclosure)
(Created by Estlcam version 10 build 10.012)
(Machining time about 00:16:37 hours)

(Required tools:)
(HSS, 2-Flute Endmill, 2mm)

G90
M03 S12000

G00 Z-25.0000


(No. 1: Mill Right Hand Side Button Hole R)
G00 Y-18.1000 X2.0000
G00 Z-0.5000
G03 Y-19.4500 X2.7794 Z-0.3333 J-0.9000 I0.0000 F100 S12000
G03 X1.2206 Z-0.1667 J0.4500 I-0.7794
G03 Y-18.1000 X2.0000 Z0.0000 J0.4500 I0.7794
G03 Y-19.4500 X2.7794 J-0.9000 I0.0000
G03 X1.2206 J0.4500 I-0.7794
G03 Y-18.1000 X2.0000 J0.4500 I0.7794
G03 Y-19.4500 X2.7794 Z0.1667 J-0.9000 I0.0000
G03 X1.2206 Z0.3333 J0.4500 I-0.7794
G03 Y-18.1000 X2.0000 Z0.5000 J0.4500 I0.7794
G03 Y-19.4500 X2.7794 J-0.9000 I0.0000
G03 X1.2206 J0.4500 I-0.7794
G03 Y-18.1000 X2.0000 J0.4500 I0.7794
G03 Y-18.0646 X2.3875 J-0.8803 I0.2758 F614
G03 Y-18.2045 X2.7955 J-1.0296 I-0.1251
G03 Y-18.5264 X3.1433 J-0.9881 I-0.5917
G03 Y-19.0000 X3.3500 J-0.7326 I-1.0326
G03 Y-19.5597 X3.3512 J-0.2827 I-1.3510
G03 Y-20.1137 X3.1137 J0.2996 I-1.4640
G03 Y-20.5590 X2.6458 J0.9185 I-1.3201
G03 Y-20.8000 X2.0000 J1.4602 I-0.9127
G03 Y-20.7669 X1.2681 J1.8134 I-0.2847
G03 Y-20.4319 X0.5681 J1.8905 I0.4746
G03 Y-19.8180 X0.0252 J1.6461 I1.2429
G03 Y-19.0000 X-0.2500 J1.0891 I1.8838
G03 Y-18.0959 X-0.1827 J0.2854 I2.2714
G03 Y-17.2499 X0.2499 J-0.6492 I2.3132
G03 Y-16.6095 X1.0098 J-1.5655 I1.9693
G03 Y-16.3000 X2.0000 J-2.3051 I1.2638
G03 Y-16.4016 X3.0763 J-2.7270 I0.2856
G03 Y-16.9317 X4.0683 J-2.7337 I-0.8232
G03 Y-17.8376 X4.8063 J-2.2908 I-1.8870
G03 Y-19.0000 X5.1500 J-1.4377 I-2.7248
G03 Y-20.2485 X5.0142 J-0.2855 I-3.1810
G03 Y-21.3865 X4.3865 J0.9969 I-3.1529
G03 Y-22.2220 X3.3346 J2.2077 I-2.6114
G03 Y-22.6000 X2.0000 J3.1436 I-1.6111
G03 Y-22.4299 X0.5793 J3.6341 I-0.2854
G03 Y-21.7047 X-0.7047 J3.5712 I1.1703
G03 Y-20.5068 X-1.6378 J2.9315 I2.5279
G03 Y-19.0000 X-2.0500 J1.7842 I3.5618
G03 Y-17.4071 X-1.8456 J0.2853 I4.0865
G03 Y-15.9771 X-1.0229 J-1.3435 I3.9890
G03 Y-14.9465 X0.3210 J-2.8477 I3.2511
G03 Y-14.5000 X2.0000 J-3.9795 I1.9571
G03 Y-14.7386 X3.7651 J-4.5384 I0.2852
G03 Y-15.6589 X5.3411 J-4.4064 I-1.5165
G03 Y-17.1488 X6.4693 J-3.5705 I-3.1672
G03 Y-19.0000 X6.9500 J-2.1298 I-4.3968
G03 Y-20.9373 X6.6771 J-0.2851 I-4.9900
G03 Y-22.6593 X5.6593 J1.6895 I-4.8235
G03 Y-23.8850 X4.0234 J3.4866 I-3.8896
G03 Y-24.4000 X2.0000 J4.8139 I-2.3024
G03 Y-24.0929 X-0.1095 J5.4414 I-0.2850
G03 Y-22.9775 X-1.9775 J5.2404 I1.8623
G03 Y-21.1956 X-3.3008 J4.2086 I3.8057
G03 Y-19.0000 X-3.8500 J2.4750 I5.2308
G03 Y-16.7183 X-3.5086 J0.2848 I5.8925
G03 Y-14.7043 X-2.2957 J-2.0350 I5.6571
G03 Y-13.2835 X-0.3679 J-4.1247 I4.5275
G03 Y-12.7000 X2.0000 J-5.6475 I2.6475
G03 Y-13.0756 X4.4540 J-6.3435 I0.2847
G03 Y-14.3861 X6.6139 J-6.0737 I-2.2076
G03 Y-16.4599 X8.1323 J-4.8462 I-4.4436
G03 Y-19.0000 X8.7500 J-2.8200 I-6.0641
G03 Y-21.6262 X8.3401 J-0.2846 I-6.7943
G03 Y-23.9321 X6.9321 J2.3802 I-6.4902
G03 Y-25.5480 X4.7123 J4.7624 I-5.1649
G03 Y-26.2000 X2.0000 J6.4806 I-2.9924
G03 Y-25.7559 X-0.7984 J7.2451 I-0.2846
G03 Y-24.2503 X-3.2503 J6.9066 I2.5528
G03 Y-21.8845 X-4.9637 J5.4836 I5.0812
G03 Y-19.0000 X-5.6500 J3.1648 I6.8970
G03 Y-16.0294 X-5.1716 J0.2845 I7.6957
G03 Y-13.4315 X-3.5685 J-2.7253 I7.3229
G03 Y-11.6205 X-1.0567 J-5.3999 I5.8021
G03 Y-10.9000 X2.0000 J-7.3133 I3.3371
G03 Y-11.4126 X5.1428 J-8.1463 I0.2844
G03 Y-13.1133 X7.8867 J-7.7391 I-2.8978
G03 Y-15.7855 X9.7606 J-6.0440 I-5.7763
G03 Y-19.0000 X10.4000 J-3.2145 I-7.7606
G03 Y-22.2145 X9.7606 J0.0000 I-8.4000
G03 Y-24.9397 X7.9397 J3.2145 I-7.7606
G03 Y-26.7606 X5.2145 J5.9397 I-5.9397
G03 Y-27.4000 X2.0000 J7.7606 I-3.2145
G03 Y-26.7606 X-1.2145 J8.4000 I0.0000
G03 Y-24.9397 X-3.9397 J7.7606 I3.2145
G03 Y-22.2145 X-5.7606 J5.9397 I5.9397
G03 Y-19.0000 X-6.4000 J3.2145 I7.7606
G03 Y-15.7855 X-5.7606 J0.0000 I8.4000
G03 Y-13.0603 X-3.9397 J-3.2145 I7.7606
G03 Y-11.2394 X-1.2145 J-5.9397 I5.9397
G03 Y-10.6000 X2.0000 J-7.7606 I3.2145
G03 Y-23.2000 X9.2746 J-8.4000 I0.0000
G03 X-5.2746 J4.2000 I-7.2746
G03 Y-10.6000 X2.0000 J4.2000 I7.2746
G03 Y-19.9000 J-4.6500 I0.0000
G03 Y-18.1000 J0.9000 I0.0000
G03 Y-19.4500 X2.7794 Z0.6667 J-0.9000 I0.0000 F100
G03 X1.2206 Z0.8333 J0.4500 I-0.7794
G03 Y-18.1000 X2.0000 Z1.0000 J0.4500 I0.7794
G03 Y-19.4500 X2.7794 J-0.9000 I0.0000
G03 X1.2206 J0.4500 I-0.7794
G03 Y-18.1000 X2.0000 J0.4500 I0.7794
G03 Y-18.0646 X2.3875 J-0.8803 I0.2758 F614
G03 Y-18.2045 X2.7955 J-1.0296 I-0.1251
G03 Y-18.5264 X3.1433 J-0.9881 I-0.5917
G03 Y-19.0000 X3.3500 J-0.7326 I-1.0326
G03 Y-19.5597 X3.3512 J-0.2827 I-1.3510
G03 Y-20.1137 X3.1137 J0.2996 I-1.4640
G03 Y-20.5590 X2.6458 J0.9185 I-1.3201
G03 Y-20.8000 X2.0000 J1.4602 I-0.9127
G03 Y-20.7669 X1.2681 J1.8134 I-0.2847
G03 Y-20.4319 X0.5681 J1.8905 I0.4746
G03 Y-19.8180 X0.0252 J1.6461 I1.2429
G03 Y-19.0000 X-0.2500 J1.0891 I1.8838
G03 Y-18.0959 X-0.1827 J0.2854 I2.2714
G03 Y-17.2499 X0.2499 J-0.6492 I2.3132
G03 Y-16.6095 X1.0098 J-1.5655 I1.9693
G03 Y-16.3000 X2.0000 J-2.3051 I1.2638
G03 Y-16.4016 X3.0763 J-2.7270 I0.2856
G03 Y-16.9317 X4.0683 J-2.7337 I-0.8232
G03 Y-17.8376 X4.8063 J-2.2908 I-1.8870
G03 Y-19.0000 X5.1500 J-1.4377 I-2.7248
G03 Y-20.2485 X5.0142 J-0.2855 I-3.1810
G03 Y-21.3865 X4.3865 J0.9969 I-3.1529
G03 Y-22.2220 X3.3346 J2.2077 I-2.6114
G03 Y-22.6000 X2.0000 J3.1436 I-1.6111
G03 Y-22.4299 X0.5793 J3.6341 I-0.2854
G03 Y-21.7047 X-0.7047 J3.5712 I1.1703
G03 Y-20.5068 X-1.6378 J2.9315 I2.5279
G03 Y-19.0000 X-2.0500 J1.7842 I3.5618
G03 Y-17.4071 X-1.8456 J0.2853 I4.0865
G03 Y-15.9771 X-1.0229 J-1.3435 I3.9890
G03 Y-14.9465 X0.3210 J-2.8477 I3.2511
G03 Y-14.5000 X2.0000 J-3.9795 I1.9571
G03 Y-14.7386 X3.7651 J-4.5384 I0.2852
G03 Y-15.6589 X5.3411 J-4.4064 I-1.5165
G03 Y-17.1488 X6.4693 J-3.5705 I-3.1672
G03 Y-19.0000 X6.9500 J-2.1298 I-4.3968
G03 Y-20.9373 X6.6771 J-0.2851 I-4.9900
G03 Y-22.6593 X5.6593 J1.6895 I-4.8235
G03 Y-23.8850 X4.0234 J3.4866 I-3.8896
G03 Y-24.4000 X2.0000 J4.8139 I-2.3024
G03 Y-24.0929 X-0.1095 J5.4414 I-0.2850
G03 Y-22.9775 X-1.9775 J5.2404 I1.8623
G03 Y-21.1956 X-3.3008 J4.2086 I3.8057
G03 Y-19.0000 X-3.8500 J2.4750 I5.2308
G03 Y-16.7183 X-3.5086 J0.2848 I5.8925
G03 Y-14.7043 X-2.2957 J-2.0350 I5.6571
G03 Y-13.2835 X-0.3679 J-4.1247 I4.5275
G03 Y-12.7000 X2.0000 J-5.6475 I2.6475
G03 Y-13.0756 X4.4540 J-6.3435 I0.2847
G03 Y-14.3861 X6.6139 J-6.0737 I-2.2076
G03 Y-16.4599 X8.1323 J-4.8462 I-4.4436
G03 Y-19.0000 X8.7500 J-2.8200 I-6.0641
G03 Y-21.6262 X8.3401 J-0.2846 I-6.7943
G03 Y-23.9321 X6.9321 J2.3802 I-6.4902
G03 Y-25.5480 X4.7123 J4.7624 I-5.1649
G03 Y-26.2000 X2.0000 J6.4806 I-2.9924
G03 Y-25.7559 X-0.7984 J7.2451 I-0.2846
G03 Y-24.2503 X-3.2503 J6.9066 I2.5528
G03 Y-21.8845 X-4.9637 J5.4836 I5.0812
G03 Y-19.0000 X-5.6500 J3.1648 I6.8970
G03 Y-16.0294 X-5.1716 J0.2845 I7.6957
G03 Y-13.4315 X-3.5685 J-2.7253 I7.3229
G03 Y-11.6205 X-1.0567 J-5.3999 I5.8021
G03 Y-10.9000 X2.0000 J-7.3133 I3.3371
G03 Y-11.4126 X5.1428 J-8.1463 I0.2844
G03 Y-13.1133 X7.8867 J-7.7391 I-2.8978
G03 Y-15.7855 X9.7606 J-6.0440 I-5.7763
G03 Y-19.0000 X10.4000 J-3.2145 I-7.7606
G03 Y-22.2145 X9.7606 J0.0000 I-8.4000
G03 Y-24.9397 X7.9397 J3.2145 I-7.7606
G03 Y-26.7606 X5.2145 J5.9397 I-5.9397
G03 Y-27.4000 X2.0000 J7.7606 I-3.2145
G03 Y-26.7606 X-1.2145 J8.4000 I0.0000
G03 Y-24.9397 X-3.9397 J7.7606 I3.2145
G03 Y-22.2145 X-5.7606 J5.9397 I5.9397
G03 Y-19.0000 X-6.4000 J3.2145 I7.7606
G03 Y-15.7855 X-5.7606 J0.0000 I8.4000
G03 Y-13.0603 X-3.9397 J-3.2145 I7.7606
G03 Y-11.2394 X-1.2145 J-5.9397 I5.9397
G03 Y-10.6000 X2.0000 J-7.7606 I3.2145
G03 Y-23.2000 X9.2746 J-8.4000 I0.0000
G03 X-5.2746 J4.2000 I-7.2746
G03 Y-10.6000 X2.0000 J4.2000 I7.2746
G03 Y-19.9000 J-4.6500 I0.0000
G03 Y-18.1000 J0.9000 I0.0000
G03 Y-19.4500 X2.7794 Z1.1667 J-0.9000 I0.0000 F100
G03 X1.2206 Z1.3333 J0.4500 I-0.7794
G03 Y-18.1000 X2.0000 Z1.5000 J0.4500 I0.7794
G03 Y-19.4500 X2.7794 J-0.9000 I0.0000
G03 X1.2206 J0.4500 I-0.7794
G03 Y-18.1000 X2.0000 J0.4500 I0.7794
G03 Y-18.0646 X2.3875 J-0.8803 I0.2758 F614
G03 Y-18.2045 X2.7955 J-1.0296 I-0.1251
G03 Y-18.5264 X3.1433 J-0.9881 I-0.5917
G03 Y-19.0000 X3.3500 J-0.7326 I-1.0326
G03 Y-19.5597 X3.3512 J-0.2827 I-1.3510
G03 Y-20.1137 X3.1137 J0.2996 I-1.4640
G03 Y-20.5590 X2.6458 J0.9185 I-1.3201
G03 Y-20.8000 X2.0000 J1.4602 I-0.9127
G03 Y-20.7669 X1.2681 J1.8134 I-0.2847
G03 Y-20.4319 X0.5681 J1.8905 I0.4746
G03 Y-19.8180 X0.0252 J1.6461 I1.2429
G03 Y-19.0000 X-0.2500 J1.0891 I1.8838
G03 Y-18.0959 X-0.1827 J0.2854 I2.2714
G03 Y-17.2499 X0.2499 J-0.6492 I2.3132
G03 Y-16.6095 X1.0098 J-1.5655 I1.9693
G03 Y-16.3000 X2.0000 J-2.3051 I1.2638
G03 Y-16.4016 X3.0763 J-2.7270 I0.2856
G03 Y-16.9317 X4.0683 J-2.7337 I-0.8232
G03 Y-17.8376 X4.8063 J-2.2908 I-1.8870
G03 Y-19.0000 X5.1500 J-1.4377 I-2.7248
G03 Y-20.2485 X5.0142 J-0.2855 I-3.1810
G03 Y-21.3865 X4.3865 J0.9969 I-3.1529
G03 Y-22.2220 X3.3346 J2.2077 I-2.6114
G03 Y-22.6000 X2.0000 J3.1436 I-1.6111
G03 Y-22.4299 X0.5793 J3.6341 I-0.2854
G03 Y-21.7047 X-0.7047 J3.5712 I1.1703
G03 Y-20.5068 X-1.6378 J2.9315 I2.5279
G03 Y-19.0000 X-2.0500 J1.7842 I3.5618
G03 Y-17.4071 X-1.8456 J0.2853 I4.0865
G03 Y-15.9771 X-1.0229 J-1.3435 I3.9890
G03 Y-14.9465 X0.3210 J-2.8477 I3.2511
G03 Y-14.5000 X2.0000 J-3.9795 I1.9571
G03 Y-14.7386 X3.7651 J-4.5384 I0.2852
G03 Y-15.6589 X5.3411 J-4.4064 I-1.5165
G03 Y-17.1488 X6.4693 J-3.5705 I-3.1672
G03 Y-19.0000 X6.9500 J-2.1298 I-4.3968
G03 Y-20.9373 X6.6771 J-0.2851 I-4.9900
G03 Y-22.6593 X5.6593 J1.6895 I-4.8235
G03 Y-23.8850 X4.0234 J3.4866 I-3.8896
G03 Y-24.4000 X2.0000 J4.8139 I-2.3024
G03 Y-24.0929 X-0.1095 J5.4414 I-0.2850
G03 Y-22.9775 X-1.9775 J5.2404 I1.8623
G03 Y-21.1956 X-3.3008 J4.2086 I3.8057
G03 Y-19.0000 X-3.8500 J2.4750 I5.2308
G03 Y-16.7183 X-3.5086 J0.2848 I5.8925
G03 Y-14.7043 X-2.2957 J-2.0350 I5.6571
G03 Y-13.2835 X-0.3679 J-4.1247 I4.5275
G03 Y-12.7000 X2.0000 J-5.6475 I2.6475
G03 Y-13.0756 X4.4540 J-6.3435 I0.2847
G03 Y-14.3861 X6.6139 J-6.0737 I-2.2076
G03 Y-16.4599 X8.1323 J-4.8462 I-4.4436
G03 Y-19.0000 X8.7500 J-2.8200 I-6.0641
G03 Y-21.6262 X8.3401 J-0.2846 I-6.7943
G03 Y-23.9321 X6.9321 J2.3802 I-6.4902
G03 Y-25.5480 X4.7123 J4.7624 I-5.1649
G03 Y-26.2000 X2.0000 J6.4806 I-2.9924
G03 Y-25.7559 X-0.7984 J7.2451 I-0.2846
G03 Y-24.2503 X-3.2503 J6.9066 I2.5528
G03 Y-21.8845 X-4.9637 J5.4836 I5.0812
G03 Y-19.0000 X-5.6500 J3.1648 I6.8970
G03 Y-16.0294 X-5.1716 J0.2845 I7.6957
G03 Y-13.4315 X-3.5685 J-2.7253 I7.3229
G03 Y-11.6205 X-1.0567 J-5.3999 I5.8021
G03 Y-10.9000 X2.0000 J-7.3133 I3.3371
G03 Y-11.4126 X5.1428 J-8.1463 I0.2844
G03 Y-13.1133 X7.8867 J-7.7391 I-2.8978
G03 Y-15.7855 X9.7606 J-6.0440 I-5.7763
G03 Y-19.0000 X10.4000 J-3.2145 I-7.7606
G03 Y-22.2145 X9.7606 J0.0000 I-8.4000
G03 Y-24.9397 X7.9397 J3.2145 I-7.7606
G03 Y-26.7606 X5.2145 J5.9397 I-5.9397
G03 Y-27.4000 X2.0000 J7.7606 I-3.2145
G03 Y-26.7606 X-1.2145 J8.4000 I0.0000
G03 Y-24.9397 X-3.9397 J7.7606 I3.2145
G03 Y-22.2145 X-5.7606 J5.9397 I5.9397
G03 Y-19.0000 X-6.4000 J3.2145 I7.7606
G03 Y-15.7855 X-5.7606 J0.0000 I8.4000
G03 Y-13.0603 X-3.9397 J-3.2145 I7.7606
G03 Y-11.2394 X-1.2145 J-5.9397 I5.9397
G03 Y-10.6000 X2.0000 J-7.7606 I3.2145
G03 Y-23.2000 X9.2746 J-8.4000 I0.0000
G03 X-5.2746 J4.2000 I-7.2746
G03 Y-10.6000 X2.0000 J4.2000 I7.2746
G03 Y-19.9000 J-4.6500 I0.0000
G03 Y-18.1000 J0.9000 I0.0000
G03 Y-19.4500 X2.7794 Z1.6667 J-0.9000 I0.0000 F100
G03 X1.2206 Z1.8333 J0.4500 I-0.7794
G03 Y-18.1000 X2.0000 Z2.0000 J0.4500 I0.7794
G03 Y-19.4500 X2.7794 J-0.9000 I0.0000
G03 X1.2206 J0.4500 I-0.7794
G03 Y-18.1000 X2.0000 J0.4500 I0.7794
G03 Y-18.0646 X2.3875 J-0.8803 I0.2758 F614
G03 Y-18.2045 X2.7955 J-1.0296 I-0.1251
G03 Y-18.5264 X3.1433 J-0.9881 I-0.5917
G03 Y-19.0000 X3.3500 J-0.7326 I-1.0326
G03 Y-19.5597 X3.3512 J-0.2827 I-1.3510
G03 Y-20.1137 X3.1137 J0.2996 I-1.4640
G03 Y-20.5590 X2.6458 J0.9185 I-1.3201
G03 Y-20.8000 X2.0000 J1.4602 I-0.9127
G03 Y-20.7669 X1.2681 J1.8134 I-0.2847
G03 Y-20.4319 X0.5681 J1.8905 I0.4746
G03 Y-19.8180 X0.0252 J1.6461 I1.2429
G03 Y-19.0000 X-0.2500 J1.0891 I1.8838
G03 Y-18.0959 X-0.1827 J0.2854 I2.2714
G03 Y-17.2499 X0.2499 J-0.6492 I2.3132
G03 Y-16.6095 X1.0098 J-1.5655 I1.9693
G03 Y-16.3000 X2.0000 J-2.3051 I1.2638
G03 Y-16.4016 X3.0763 J-2.7270 I0.2856
G03 Y-16.9317 X4.0683 J-2.7337 I-0.8232
G03 Y-17.8376 X4.8063 J-2.2908 I-1.8870
G03 Y-19.0000 X5.1500 J-1.4377 I-2.7248
G03 Y-20.2485 X5.0142 J-0.2855 I-3.1810
G03 Y-21.3865 X4.3865 J0.9969 I-3.1529
G03 Y-22.2220 X3.3346 J2.2077 I-2.6114
G03 Y-22.6000 X2.0000 J3.1436 I-1.6111
G03 Y-22.4299 X0.5793 J3.6341 I-0.2854
G03 Y-21.7047 X-0.7047 J3.5712 I1.1703
G03 Y-20.5068 X-1.6378 J2.9315 I2.5279
G03 Y-19.0000 X-2.0500 J1.7842 I3.5618
G03 Y-17.4071 X-1.8456 J0.2853 I4.0865
G03 Y-15.9771 X-1.0229 J-1.3435 I3.9890
G03 Y-14.9465 X0.3210 J-2.8477 I3.2511
G03 Y-14.5000 X2.0000 J-3.9795 I1.9571
G03 Y-14.7386 X3.7651 J-4.5384 I0.2852
G03 Y-15.6589 X5.3411 J-4.4064 I-1.5165
G03 Y-17.1488 X6.4693 J-3.5705 I-3.1672
G03 Y-19.0000 X6.9500 J-2.1298 I-4.3968
G03 Y-20.9373 X6.6771 J-0.2851 I-4.9900
G03 Y-22.6593 X5.6593 J1.6895 I-4.8235
G03 Y-23.8850 X4.0234 J3.4866 I-3.8896
G03 Y-24.4000 X2.0000 J4.8139 I-2.3024
G03 Y-24.0929 X-0.1095 J5.4414 I-0.2850
G03 Y-22.9775 X-1.9775 J5.2404 I1.8623
G03 Y-21.1956 X-3.3008 J4.2086 I3.8057
G03 Y-19.0000 X-3.8500 J2.4750 I5.2308
G03 Y-16.7183 X-3.5086 J0.2848 I5.8925
G03 Y-14.7043 X-2.2957 J-2.0350 I5.6571
G03 Y-13.2835 X-0.3679 J-4.1247 I4.5275
G03 Y-12.7000 X2.0000 J-5.6475 I2.6475
G03 Y-13.0756 X4.4540 J-6.3435 I0.2847
G03 Y-14.3861 X6.6139 J-6.0737 I-2.2076
G03 Y-16.4599 X8.1323 J-4.8462 I-4.4436
G03 Y-19.0000 X8.7500 J-2.8200 I-6.0641
G03 Y-21.6262 X8.3401 J-0.2846 I-6.7943
G03 Y-23.9321 X6.9321 J2.3802 I-6.4902
G03 Y-25.5480 X4.7123 J4.7624 I-5.1649
G03 Y-26.2000 X2.0000 J6.4806 I-2.9924
G03 Y-25.7559 X-0.7984 J7.2451 I-0.2846
G03 Y-24.2503 X-3.2503 J6.9066 I2.5528
G03 Y-21.8845 X-4.9637 J5.4836 I5.0812
G03 Y-19.0000 X-5.6500 J3.1648 I6.8970
G03 Y-16.0294 X-5.1716 J0.2845 I7.6957
G03 Y-13.4315 X-3.5685 J-2.7253 I7.3229
G03 Y-11.6205 X-1.0567 J-5.3999 I5.8021
G03 Y-10.9000 X2.0000 J-7.3133 I3.3371
G03 Y-11.4126 X5.1428 J-8.1463 I0.2844
G03 Y-13.1133 X7.8867 J-7.7391 I-2.8978
G03 Y-15.7855 X9.7606 J-6.0440 I-5.7763
G03 Y-19.0000 X10.4000 J-3.2145 I-7.7606
G03 Y-22.2145 X9.7606 J0.0000 I-8.4000
G03 Y-24.9397 X7.9397 J3.2145 I-7.7606
G03 Y-26.7606 X5.2145 J5.9397 I-5.9397
G03 Y-27.4000 X2.0000 J7.7606 I-3.2145
G03 Y-26.7606 X-1.2145 J8.4000 I0.0000
G03 Y-24.9397 X-3.9397 J7.7606 I3.2145
G03 Y-22.2145 X-5.7606 J5.9397 I5.9397
G03 Y-19.0000 X-6.4000 J3.2145 I7.7606
G03 Y-15.7855 X-5.7606 J0.0000 I8.4000
G03 Y-13.0603 X-3.9397 J-3.2145 I7.7606
G03 Y-11.2394 X-1.2145 J-5.9397 I5.9397
G03 Y-10.6000 X2.0000 J-7.7606 I3.2145
G03 Y-23.2000 X9.2746 J-8.4000 I0.0000
G03 X-5.2746 J4.2000 I-7.2746
G03 Y-10.6000 X2.0000 J4.2000 I7.2746
G03 Y-19.9000 J-4.6500 I0.0000
G03 Y-18.1000 J0.9000 I0.0000
G03 Y-19.4500 X2.7794 Z2.1667 J-0.9000 I0.0000 F100
G03 X1.2206 Z2.3333 J0.4500 I-0.7794
G03 Y-18.1000 X2.0000 Z2.5000 J0.4500 I0.7794
G03 Y-19.4500 X2.7794 J-0.9000 I0.0000
G03 X1.2206 J0.4500 I-0.7794
G03 Y-18.1000 X2.0000 J0.4500 I0.7794
G03 Y-18.0646 X2.3875 J-0.8803 I0.2758 F614
G03 Y-18.2045 X2.7955 J-1.0296 I-0.1251
G03 Y-18.5264 X3.1433 J-0.9881 I-0.5917
G03 Y-19.0000 X3.3500 J-0.7326 I-1.0326
G03 Y-19.5597 X3.3512 J-0.2827 I-1.3510
G03 Y-20.1137 X3.1137 J0.2996 I-1.4640
G03 Y-20.5590 X2.6458 J0.9185 I-1.3201
G03 Y-20.8000 X2.0000 J1.4602 I-0.9127
G03 Y-20.7669 X1.2681 J1.8134 I-0.2847
G03 Y-20.4319 X0.5681 J1.8905 I0.4746
G03 Y-19.8180 X0.0252 J1.6461 I1.2429
G03 Y-19.0000 X-0.2500 J1.0891 I1.8838
G03 Y-18.0959 X-0.1827 J0.2854 I2.2714
G03 Y-17.2499 X0.2499 J-0.6492 I2.3132
G03 Y-16.6095 X1.0098 J-1.5655 I1.9693
G03 Y-16.3000 X2.0000 J-2.3051 I1.2638
G03 Y-16.4016 X3.0763 J-2.7270 I0.2856
G03 Y-16.9317 X4.0683 J-2.7337 I-0.8232
G03 Y-17.8376 X4.8063 J-2.2908 I-1.8870
G03 Y-19.0000 X5.1500 J-1.4377 I-2.7248
G03 Y-20.2485 X5.0142 J-0.2855 I-3.1810
G03 Y-21.3865 X4.3865 J0.9969 I-3.1529
G03 Y-22.2220 X3.3346 J2.2077 I-2.6114
G03 Y-22.6000 X2.0000 J3.1436 I-1.6111
G03 Y-22.4299 X0.5793 J3.6341 I-0.2854
G03 Y-21.7047 X-0.7047 J3.5712 I1.1703
G03 Y-20.5068 X-1.6378 J2.9315 I2.5279
G03 Y-19.0000 X-2.0500 J1.7842 I3.5618
G03 Y-17.4071 X-1.8456 J0.2853 I4.0865
G03 Y-15.9771 X-1.0229 J-1.3435 I3.9890
G03 Y-14.9465 X0.3210 J-2.8477 I3.2511
G03 Y-14.5000 X2.0000 J-3.9795 I1.9571
G03 Y-14.7386 X3.7651 J-4.5384 I0.2852
G03 Y-15.6589 X5.3411 J-4.4064 I-1.5165
G03 Y-17.1488 X6.4693 J-3.5705 I-3.1672
G03 Y-19.0000 X6.9500 J-2.1298 I-4.3968
G03 Y-20.9373 X6.6771 J-0.2851 I-4.9900
G03 Y-22.6593 X5.6593 J1.6895 I-4.8235
G03 Y-23.8850 X4.0234 J3.4866 I-3.8896
G03 Y-24.4000 X2.0000 J4.8139 I-2.3024
G03 Y-24.0929 X-0.1095 J5.4414 I-0.2850
G03 Y-22.9775 X-1.9775 J5.2404 I1.8623
G03 Y-21.1956 X-3.3008 J4.2086 I3.8057
G03 Y-19.0000 X-3.8500 J2.4750 I5.2308
G03 Y-16.7183 X-3.5086 J0.2848 I5.8925
G03 Y-14.7043 X-2.2957 J-2.0350 I5.6571
G03 Y-13.2835 X-0.3679 J-4.1247 I4.5275
G03 Y-12.7000 X2.0000 J-5.6475 I2.6475
G03 Y-13.0756 X4.4540 J-6.3435 I0.2847
G03 Y-14.3861 X6.6139 J-6.0737 I-2.2076
G03 Y-16.4599 X8.1323 J-4.8462 I-4.4436
G03 Y-19.0000 X8.7500 J-2.8200 I-6.0641
G03 Y-21.6262 X8.3401 J-0.2846 I-6.7943
G03 Y-23.9321 X6.9321 J2.3802 I-6.4902
G03 Y-25.5480 X4.7123 J4.7624 I-5.1649
G03 Y-26.2000 X2.0000 J6.4806 I-2.9924
G03 Y-25.7559 X-0.7984 J7.2451 I-0.2846
G03 Y-24.2503 X-3.2503 J6.9066 I2.5528
G03 Y-21.8845 X-4.9637 J5.4836 I5.0812
G03 Y-19.0000 X-5.6500 J3.1648 I6.8970
G03 Y-16.0294 X-5.1716 J0.2845 I7.6957
G03 Y-13.4315 X-3.5685 J-2.7253 I7.3229
G03 Y-11.6205 X-1.0567 J-5.3999 I5.8021
G03 Y-10.9000 X2.0000 J-7.3133 I3.3371
G03 Y-11.4126 X5.1428 J-8.1463 I0.2844
G03 Y-13.1133 X7.8867 J-7.7391 I-2.8978
G03 Y-15.7855 X9.7606 J-6.0440 I-5.7763
G03 Y-19.0000 X10.4000 J-3.2145 I-7.7606
G03 Y-22.2145 X9.7606 J0.0000 I-8.4000
G03 Y-24.9397 X7.9397 J3.2145 I-7.7606
G03 Y-26.7606 X5.2145 J5.9397 I-5.9397
G03 Y-27.4000 X2.0000 J7.7606 I-3.2145
G03 Y-26.7606 X-1.2145 J8.4000 I0.0000
G03 Y-24.9397 X-3.9397 J7.7606 I3.2145
G03 Y-22.2145 X-5.7606 J5.9397 I5.9397
G03 Y-19.0000 X-6.4000 J3.2145 I7.7606
G03 Y-15.7855 X-5.7606 J0.0000 I8.4000
G03 Y-13.0603 X-3.9397 J-3.2145 I7.7606
G03 Y-11.2394 X-1.2145 J-5.9397 I5.9397
G03 Y-10.6000 X2.0000 J-7.7606 I3.2145
G03 Y-23.2000 X9.2746 J-8.4000 I0.0000
G03 X-5.2746 J4.2000 I-7.2746
G03 Y-10.6000 X2.0000 J4.2000 I7.2746
G03 Y-19.9000 J-4.6500 I0.0000
G03 Y-18.1000 J0.9000 I0.0000
G03 Y-19.4500 X2.7794 Z2.6667 J-0.9000 I0.0000 F100
G03 X1.2206 Z2.8333 J0.4500 I-0.7794
G03 Y-18.1000 X2.0000 Z3.0000 J0.4500 I0.7794
G03 Y-19.4500 X2.7794 J-0.9000 I0.0000
G03 X1.2206 J0.4500 I-0.7794
G03 Y-18.1000 X2.0000 J0.4500 I0.7794
G03 Y-18.0646 X2.3875 J-0.8803 I0.2758 F614
G03 Y-18.2045 X2.7955 J-1.0296 I-0.1251
G03 Y-18.5264 X3.1433 J-0.9881 I-0.5917
G03 Y-19.0000 X3.3500 J-0.7326 I-1.0326
G03 Y-19.5597 X3.3512 J-0.2827 I-1.3510
G03 Y-20.1137 X3.1137 J0.2996 I-1.4640
G03 Y-20.5590 X2.6458 J0.9185 I-1.3201
G03 Y-20.8000 X2.0000 J1.4602 I-0.9127
G03 Y-20.7669 X1.2681 J1.8134 I-0.2847
G03 Y-20.4319 X0.5681 J1.8905 I0.4746
G03 Y-19.8180 X0.0252 J1.6461 I1.2429
G03 Y-19.0000 X-0.2500 J1.0891 I1.8838
G03 Y-18.0959 X-0.1827 J0.2854 I2.2714
G03 Y-17.2499 X0.2499 J-0.6492 I2.3132
G03 Y-16.6095 X1.0098 J-1.5655 I1.9693
G03 Y-16.3000 X2.0000 J-2.3051 I1.2638
G03 Y-16.4016 X3.0763 J-2.7270 I0.2856
G03 Y-16.9317 X4.0683 J-2.7337 I-0.8232
G03 Y-17.8376 X4.8063 J-2.2908 I-1.8870
G03 Y-19.0000 X5.1500 J-1.4377 I-2.7248
G03 Y-20.2485 X5.0142 J-0.2855 I-3.1810
G03 Y-21.3865 X4.3865 J0.9969 I-3.1529
G03 Y-22.2220 X3.3346 J2.2077 I-2.6114
G03 Y-22.6000 X2.0000 J3.1436 I-1.6111
G03 Y-22.4299 X0.5793 J3.6341 I-0.2854
G03 Y-21.7047 X-0.7047 J3.5712 I1.1703
G03 Y-20.5068 X-1.6378 J2.9315 I2.5279
G03 Y-19.0000 X-2.0500 J1.7842 I3.5618
G03 Y-17.4071 X-1.8456 J0.2853 I4.0865
G03 Y-15.9771 X-1.0229 J-1.3435 I3.9890
G03 Y-14.9465 X0.3210 J-2.8477 I3.2511
G03 Y-14.5000 X2.0000 J-3.9795 I1.9571
G03 Y-14.7386 X3.7651 J-4.5384 I0.2852
G03 Y-15.6589 X5.3411 J-4.4064 I-1.5165
G03 Y-17.1488 X6.4693 J-3.5705 I-3.1672
G03 Y-19.0000 X6.9500 J-2.1298 I-4.3968
G03 Y-20.9373 X6.6771 J-0.2851 I-4.9900
G03 Y-22.6593 X5.6593 J1.6895 I-4.8235
G03 Y-23.8850 X4.0234 J3.4866 I-3.8896
G03 Y-24.4000 X2.0000 J4.8139 I-2.3024
G03 Y-24.0929 X-0.1095 J5.4414 I-0.2850
G03 Y-22.9775 X-1.9775 J5.2404 I1.8623
G03 Y-21.1956 X-3.3008 J4.2086 I3.8057
G03 Y-19.0000 X-3.8500 J2.4750 I5.2308
G03 Y-16.7183 X-3.5086 J0.2848 I5.8925
G03 Y-14.7043 X-2.2957 J-2.0350 I5.6571
G03 Y-13.2835 X-0.3679 J-4.1247 I4.5275
G03 Y-12.7000 X2.0000 J-5.6475 I2.6475
G03 Y-13.0756 X4.4540 J-6.3435 I0.2847
G03 Y-14.3861 X6.6139 J-6.0737 I-2.2076
G03 Y-16.4599 X8.1323 J-4.8462 I-4.4436
G03 Y-19.0000 X8.7500 J-2.8200 I-6.0641
G03 Y-21.6262 X8.3401 J-0.2846 I-6.7943
G03 Y-23.9321 X6.9321 J2.3802 I-6.4902
G03 Y-25.5480 X4.7123 J4.7624 I-5.1649
G03 Y-26.2000 X2.0000 J6.4806 I-2.9924
G03 Y-25.7559 X-0.7984 J7.2451 I-0.2846
G03 Y-24.2503 X-3.2503 J6.9066 I2.5528
G03 Y-21.8845 X-4.9637 J5.4836 I5.0812
G03 Y-19.0000 X-5.6500 J3.1648 I6.8970
G03 Y-16.0294 X-5.1716 J0.2845 I7.6957
G03 Y-13.4315 X-3.5685 J-2.7253 I7.3229
G03 Y-11.6205 X-1.0567 J-5.3999 I5.8021
G03 Y-10.9000 X2.0000 J-7.3133 I3.3371
G03 Y-11.4126 X5.1428 J-8.1463 I0.2844
G03 Y-13.1133 X7.8867 J-7.7391 I-2.8978
G03 Y-15.7855 X9.7606 J-6.0440 I-5.7763
G03 Y-19.0000 X10.4000 J-3.2145 I-7.7606
G03 Y-22.2145 X9.7606 J0.0000 I-8.4000
G03 Y-24.9397 X7.9397 J3.2145 I-7.7606
G03 Y-26.7606 X5.2145 J5.9397 I-5.9397
G03 Y-27.4000 X2.0000 J7.7606 I-3.2145
G03 Y-26.7606 X-1.2145 J8.4000 I0.0000
G03 Y-24.9397 X-3.9397 J7.7606 I3.2145
G03 Y-22.2145 X-5.7606 J5.9397 I5.9397
G03 Y-19.0000 X-6.4000 J3.2145 I7.7606
G03 Y-15.7855 X-5.7606 J0.0000 I8.4000
G03 Y-13.0603 X-3.9397 J-3.2145 I7.7606
G03 Y-11.2394 X-1.2145 J-5.9397 I5.9397
G03 Y-10.6000 X2.0000 J-7.7606 I3.2145
G03 Y-23.2000 X9.2746 J-8.4000 I0.0000
G03 X-5.2746 J4.2000 I-7.2746
G03 Y-10.6000 X2.0000 J4.2000 I7.2746
G03 Y-19.9000 J-4.6500 I0.0000
G03 Y-18.1000 J0.9000 I0.0000
G03 Y-19.4500 X2.7794 Z3.1667 J-0.9000 I0.0000 F100
G03 X1.2206 Z3.3333 J0.4500 I-0.7794
G03 Y-18.1000 X2.0000 Z3.5000 J0.4500 I0.7794
G03 Y-19.4500 X2.7794 J-0.9000 I0.0000
G03 X1.2206 J0.4500 I-0.7794
G03 Y-18.1000 X2.0000 J0.4500 I0.7794
G03 Y-18.0646 X2.3875 J-0.8803 I0.2758 F614
G03 Y-18.2045 X2.7955 J-1.0296 I-0.1251
G03 Y-18.5264 X3.1433 J-0.9881 I-0.5917
G03 Y-19.0000 X3.3500 J-0.7326 I-1.0326
G03 Y-19.5597 X3.3512 J-0.2827 I-1.3510
G03 Y-20.1137 X3.1137 J0.2996 I-1.4640
G03 Y-20.5590 X2.6458 J0.9185 I-1.3201
G03 Y-20.8000 X2.0000 J1.4602 I-0.9127
G03 Y-20.7669 X1.2681 J1.8134 I-0.2847
G03 Y-20.4319 X0.5681 J1.8905 I0.4746
G03 Y-19.8180 X0.0252 J1.6461 I1.2429
G03 Y-19.0000 X-0.2500 J1.0891 I1.8838
G03 Y-18.0959 X-0.1827 J0.2854 I2.2714
G03 Y-17.2499 X0.2499 J-0.6492 I2.3132
G03 Y-16.6095 X1.0098 J-1.5655 I1.9693
G03 Y-16.3000 X2.0000 J-2.3051 I1.2638
G03 Y-16.4016 X3.0763 J-2.7270 I0.2856
G03 Y-16.9317 X4.0683 J-2.7337 I-0.8232
G03 Y-17.8376 X4.8063 J-2.2908 I-1.8870
G03 Y-19.0000 X5.1500 J-1.4377 I-2.7248
G03 Y-20.2485 X5.0142 J-0.2855 I-3.1810
G03 Y-21.3865 X4.3865 J0.9969 I-3.1529
G03 Y-22.2220 X3.3346 J2.2077 I-2.6114
G03 Y-22.6000 X2.0000 J3.1436 I-1.6111
G03 Y-22.4299 X0.5793 J3.6341 I-0.2854
G03 Y-21.7047 X-0.7047 J3.5712 I1.1703
G03 Y-20.5068 X-1.6378 J2.9315 I2.5279
G03 Y-19.0000 X-2.0500 J1.7842 I3.5618
G03 Y-17.4071 X-1.8456 J0.2853 I4.0865
G03 Y-15.9771 X-1.0229 J-1.3435 I3.9890
G03 Y-14.9465 X0.3210 J-2.8477 I3.2511
G03 Y-14.5000 X2.0000 J-3.9795 I1.9571
G03 Y-14.7386 X3.7651 J-4.5384 I0.2852
G03 Y-15.6589 X5.3411 J-4.4064 I-1.5165
G03 Y-17.1488 X6.4693 J-3.5705 I-3.1672
G03 Y-19.0000 X6.9500 J-2.1298 I-4.3968
G03 Y-20.9373 X6.6771 J-0.2851 I-4.9900
G03 Y-22.6593 X5.6593 J1.6895 I-4.8235
G03 Y-23.8850 X4.0234 J3.4866 I-3.8896
G03 Y-24.4000 X2.0000 J4.8139 I-2.3024
G03 Y-24.0929 X-0.1095 J5.4414 I-0.2850
G03 Y-22.9775 X-1.9775 J5.2404 I1.8623
G03 Y-21.1956 X-3.3008 J4.2086 I3.8057
G03 Y-19.0000 X-3.8500 J2.4750 I5.2308
G03 Y-16.7183 X-3.5086 J0.2848 I5.8925
G03 Y-14.7043 X-2.2957 J-2.0350 I5.6571
G03 Y-13.2835 X-0.3679 J-4.1247 I4.5275
G03 Y-12.7000 X2.0000 J-5.6475 I2.6475
G03 Y-13.0756 X4.4540 J-6.3435 I0.2847
G03 Y-14.3861 X6.6139 J-6.0737 I-2.2076
G03 Y-16.4599 X8.1323 J-4.8462 I-4.4436
G03 Y-19.0000 X8.7500 J-2.8200 I-6.0641
G03 Y-21.6262 X8.3401 J-0.2846 I-6.7943
G03 Y-23.9321 X6.9321 J2.3802 I-6.4902
G03 Y-25.5480 X4.7123 J4.7624 I-5.1649
G03 Y-26.2000 X2.0000 J6.4806 I-2.9924
G03 Y-25.7559 X-0.7984 J7.2451 I-0.2846
G03 Y-24.2503 X-3.2503 J6.9066 I2.5528
G03 Y-21.8845 X-4.9637 J5.4836 I5.0812
G03 Y-19.0000 X-5.6500 J3.1648 I6.8970
G03 Y-16.0294 X-5.1716 J0.2845 I7.6957
G03 Y-13.4315 X-3.5685 J-2.7253 I7.3229
G03 Y-11.6205 X-1.0567 J-5.3999 I5.8021
G03 Y-10.9000 X2.0000 J-7.3133 I3.3371
G03 Y-11.4126 X5.1428 J-8.1463 I0.2844
G03 Y-13.1133 X7.8867 J-7.7391 I-2.8978
G03 Y-15.7855 X9.7606 J-6.0440 I-5.7763
G03 Y-19.0000 X10.4000 J-3.2145 I-7.7606
G03 Y-22.2145 X9.7606 J0.0000 I-8.4000
G03 Y-24.9397 X7.9397 J3.2145 I-7.7606
G03 Y-26.7606 X5.2145 J5.9397 I-5.9397
G03 Y-27.4000 X2.0000 J7.7606 I-3.2145
G03 Y-26.7606 X-1.2145 J8.4000 I0.0000
G03 Y-24.9397 X-3.9397 J7.7606 I3.2145
G03 Y-22.2145 X-5.7606 J5.9397 I5.9397
G03 Y-19.0000 X-6.4000 J3.2145 I7.7606
G03 Y-15.7855 X-5.7606 J0.0000 I8.4000
G03 Y-13.0603 X-3.9397 J-3.2145 I7.7606
G03 Y-11.2394 X-1.2145 J-5.9397 I5.9397
G03 Y-10.6000 X2.0000 J-7.7606 I3.2145
G03 Y-23.2000 X9.2746 J-8.4000 I0.0000
G03 X-5.2746 J4.2000 I-7.2746
G03 Y-10.6000 X2.0000 J4.2000 I7.2746
G03 Y-11.6000 X3.0000 Z3.0000 J-1.0000 I0.0000 F100
G00 Z-25.0000


(No. 2: Mill Right Hand Side Button Hole F)
G00 Y-26.3630 X-2.0416 Z-25.0000
G00 Z-0.5000
G01 Z0.5000 F100
G03 Y-14.9584 X-5.3630 J7.3630 I4.0416 F614
G03 Y-11.6370 X6.0416 J-4.0416 I7.3630
G03 Y-23.0416 X9.3630 J-7.3630 I-4.0416
G03 Y-26.3630 X-2.0416 J4.0416 I-7.3630
G01 Z1.0000 F100
G03 Y-14.9584 X-5.3630 J7.3630 I4.0416 F614
G03 Y-11.6370 X6.0416 J-4.0416 I7.3630
G03 Y-23.0416 X9.3630 J-7.3630 I-4.0416
G03 Y-26.3630 X-2.0416 J4.0416 I-7.3630
G01 Z1.5000 F100
G03 Y-14.9584 X-5.3630 J7.3630 I4.0416 F614
G03 Y-11.6370 X6.0416 J-4.0416 I7.3630
G03 Y-23.0416 X9.3630 J-7.3630 I-4.0416
G03 Y-26.3630 X-2.0416 J4.0416 I-7.3630
G01 Z2.0000 F100
G03 Y-14.9584 X-5.3630 J7.3630 I4.0416 F614
G03 Y-11.6370 X6.0416 J-4.0416 I7.3630
G03 Y-23.0416 X9.3630 J-7.3630 I-4.0416
G03 Y-26.3630 X-2.0416 J4.0416 I-7.3630
G01 Z2.5000 F100
G03 Y-14.9584 X-5.3630 J7.3630 I4.0416 F614
G03 Y-11.6370 X6.0416 J-4.0416 I7.3630
G03 Y-23.0416 X9.3630 J-7.3630 I-4.0416
G03 Y-26.3630 X-2.0416 J4.0416 I-7.3630
G01 Z3.0000 F100
G03 Y-14.9584 X-5.3630 J7.3630 I4.0416 F614
G03 Y-11.6370 X6.0416 J-4.0416 I7.3630
G03 Y-23.0416 X9.3630 J-7.3630 I-4.0416
G03 Y-26.3630 X-2.0416 J4.0416 I-7.3630
G01 Z3.5000 F100
G03 Y-14.9584 X-5.3630 J7.3630 I4.0416 F614
G03 Y-11.6370 X6.0416 J-4.0416 I7.3630
G03 Y-23.0416 X9.3630 J-7.3630 I-4.0416
G03 Y-26.3630 X-2.0416 J4.0416 I-7.3630


(No. 3: Mill Right Hand Side Button Hole F)
G00 Y-26.3630 X-2.0416 Z-25.0000
G00 Z-0.5000
G01 Z0.2500 F100
G01 Y-26.4521 X-2.0870 F307
G03 Y-14.9130 X-5.4521 J7.4521 I4.0870
G03 Y-11.5479 X6.0870 J-4.0870 I7.4521
G03 Y-23.0870 X9.4521 J-7.4521 I-4.0870
G03 Y-26.4521 X-2.0870 J4.0870 I-7.4521
G01 Y-26.3630 X-2.0416
G01 Z0.5000 F100
G01 Y-26.4521 X-2.0870 F307
G03 Y-14.9130 X-5.4521 J7.4521 I4.0870
G03 Y-11.5479 X6.0870 J-4.0870 I7.4521
G03 Y-23.0870 X9.4521 J-7.4521 I-4.0870
G03 Y-26.4521 X-2.0870 J4.0870 I-7.4521
G01 Y-26.3630 X-2.0416
G01 Z0.7500 F100
G01 Y-26.4521 X-2.0870 F307
G03 Y-14.9130 X-5.4521 J7.4521 I4.0870
G03 Y-11.5479 X6.0870 J-4.0870 I7.4521
G03 Y-23.0870 X9.4521 J-7.4521 I-4.0870
G03 Y-26.4521 X-2.0870 J4.0870 I-7.4521
G01 Y-26.3630 X-2.0416
G01 Z1.0000 F100
G01 Y-26.4521 X-2.0870 F307
G03 Y-14.9130 X-5.4521 J7.4521 I4.0870
G03 Y-11.5479 X6.0870 J-4.0870 I7.4521
G03 Y-23.0870 X9.4521 J-7.4521 I-4.0870
G03 Y-26.4521 X-2.0870 J4.0870 I-7.4521
G01 Y-26.3630 X-2.0416
G01 Z1.2500 F100
G01 Y-26.4521 X-2.0870 F307
G03 Y-14.9130 X-5.4521 J7.4521 I4.0870
G03 Y-11.5479 X6.0870 J-4.0870 I7.4521
G03 Y-23.0870 X9.4521 J-7.4521 I-4.0870
G03 Y-26.4521 X-2.0870 J4.0870 I-7.4521
G01 Y-26.3630 X-2.0416
G01 Z1.5000 F100
G01 Y-26.4521 X-2.0870 F307
G03 Y-14.9130 X-5.4521 J7.4521 I4.0870
G03 Y-11.5479 X6.0870 J-4.0870 I7.4521
G03 Y-23.0870 X9.4521 J-7.4521 I-4.0870
G03 Y-26.4521 X-2.0870 J4.0870 I-7.4521
G01 Y-26.3630 X-2.0416
G01 Z1.7500 F100
G01 Y-26.4521 X-2.0870 F307
G03 Y-14.9130 X-5.4521 J7.4521 I4.0870
G03 Y-11.5479 X6.0870 J-4.0870 I7.4521
G03 Y-23.0870 X9.4521 J-7.4521 I-4.0870
G03 Y-26.4521 X-2.0870 J4.0870 I-7.4521
G01 Y-26.3630 X-2.0416
G01 Z2.0000 F100
G01 Y-26.4521 X-2.0870 F307
G03 Y-14.9130 X-5.4521 J7.4521 I4.0870
G03 Y-11.5479 X6.0870 J-4.0870 I7.4521
G03 Y-23.0870 X9.4521 J-7.4521 I-4.0870
G03 Y-26.4521 X-2.0870 J4.0870 I-7.4521
G01 Y-26.3630 X-2.0416
G01 Z2.2500 F100
G01 Y-26.4521 X-2.0870 F307
G03 Y-14.9130 X-5.4521 J7.4521 I4.0870
G03 Y-11.5479 X6.0870 J-4.0870 I7.4521
G03 Y-23.0870 X9.4521 J-7.4521 I-4.0870
G03 Y-26.4521 X-2.0870 J4.0870 I-7.4521
G01 Y-26.3630 X-2.0416
G01 Z2.5000 F100
G01 Y-26.4521 X-2.0870 F307
G03 Y-14.9130 X-5.4521 J7.4521 I4.0870
G03 Y-11.5479 X6.0870 J-4.0870 I7.4521
G03 Y-23.0870 X9.4521 J-7.4521 I-4.0870
G03 Y-26.4521 X-2.0870 J4.0870 I-7.4521
G01 Y-26.3630 X-2.0416
G01 Z2.7500 F100
G01 Y-26.4521 X-2.0870 F307
G03 Y-14.9130 X-5.4521 J7.4521 I4.0870
G03 Y-11.5479 X6.0870 J-4.0870 I7.4521
G03 Y-23.0870 X9.4521 J-7.4521 I-4.0870
G03 Y-26.4521 X-2.0870 J4.0870 I-7.4521
G01 Y-26.3630 X-2.0416
G01 Z3.0000 F100
G01 Y-26.4521 X-2.0870 F307
G03 Y-14.9130 X-5.4521 J7.4521 I4.0870
G03 Y-11.5479 X6.0870 J-4.0870 I7.4521
G03 Y-23.0870 X9.4521 J-7.4521 I-4.0870
G03 Y-26.4521 X-2.0870 J4.0870 I-7.4521
G01 Y-26.3630 X-2.0416
G01 Z3.2500 F100
G01 Y-26.4521 X-2.0870 F307
G03 Y-14.9130 X-5.4521 J7.4521 I4.0870
G03 Y-11.5479 X6.0870 J-4.0870 I7.4521
G03 Y-23.0870 X9.4521 J-7.4521 I-4.0870
G03 Y-26.4521 X-2.0870 J4.0870 I-7.4521
G01 Y-26.3630 X-2.0416
G01 Z3.5000 F100
G01 Y-26.4521 X-2.0870 F307
G03 Y-14.9130 X-5.4521 J7.4521 I4.0870
G03 Y-11.5479 X6.0870 J-4.0870 I7.4521
G03 Y-23.0870 X9.4521 J-7.4521 I-4.0870
G03 Y-26.4521 X-2.0870 J4.0870 I-7.4521
G01 Y-26.3630 X-2.0416
G00 Z-25.0000


(No. 4: Stop After Right Hand Side Button Hole)
G00 Y-19.0000 X2.0000 Z-25.0000
O100 sub
	G00 Z-25
	G00 X0
	G00 Y-250
O100 endsub

O110 sub
	M00
	G00 X0
O110 endsub

O100 call
(MSG,Rotate 90 degrees - next hole is the BOTTOM SIDE for the wire hole)
O110 call



(No. 5: Mill Wire / Drainage Hole R)
G00 Y0.4000 X0.0000 Z-25.0000
G00 Z-0.5000
G03 Y-0.2000 X0.3464 Z-0.3333 J-0.4000 I0.0000 F100
G03 X-0.3464 Z-0.1667 J0.2000 I-0.3464
G03 Y0.4000 X0.0000 Z0.0000 J0.2000 I0.3464
G03 Y-0.2000 X0.3464 Z0.1667 J-0.4000 I0.0000
G03 X-0.3464 Z0.3333 J0.2000 I-0.3464
G03 Y0.4000 X0.0000 Z0.5000 J0.2000 I0.3464
G03 Y-0.2000 X0.3464 Z0.6667 J-0.4000 I0.0000
G03 X-0.3464 Z0.8333 J0.2000 I-0.3464
G03 Y0.4000 X0.0000 Z1.0000 J0.2000 I0.3464
G03 Y-0.2000 X0.3464 Z1.1667 J-0.4000 I0.0000
G03 X-0.3464 Z1.3333 J0.2000 I-0.3464
G03 Y0.4000 X0.0000 Z1.5000 J0.2000 I0.3464
G03 Y-0.2000 X0.3464 Z1.6667 J-0.4000 I0.0000
G03 X-0.3464 Z1.8333 J0.2000 I-0.3464
G03 Y0.4000 X0.0000 Z2.0000 J0.2000 I0.3464
G03 Y-0.2000 X0.3464 Z2.1667 J-0.4000 I0.0000
G03 X-0.3464 Z2.3333 J0.2000 I-0.3464
G03 Y0.4000 X0.0000 Z2.5000 J0.2000 I0.3464
G03 Y-0.2000 X0.3464 Z2.6667 J-0.4000 I0.0000
G03 X-0.3464 Z2.8333 J0.2000 I-0.3464
G03 Y0.4000 X0.0000 Z3.0000 J0.2000 I0.3464
G03 Y-0.2000 X0.3464 Z3.1667 J-0.4000 I0.0000
G03 X-0.3464 Z3.3333 J0.2000 I-0.3464
G03 Y0.4000 X0.0000 Z3.5000 J0.2000 I0.3464
G03 Y-0.2000 X0.3464 J-0.4000 I0.0000
G03 X-0.3464 J0.2000 I-0.3464
G03 Y0.4000 X0.0000 J0.2000 I0.3464
G03 Y0.0000 Z3.0000 J-0.2000 I0.0000
G00 Z-25.0000


(No. 6: Mill Wire / Drainage Hole F)
G00 Y-0.3772 X-0.1226 Z-25.0000
G00 Z-0.5000
G01 Z0.5000 F100
G03 Y0.2331 X-0.3209 J0.3772 I0.1226 F614
G03 Y-0.2804 X0.2804 J-0.2331 I0.3209
G03 Y-0.3966 X0.0000 J0.2804 I-0.2804
G01 Y-0.3917 X-0.0620
G01 Y-0.3772 X-0.1226
G01 Z1.0000 F100
G03 Y0.2331 X-0.3209 J0.3772 I0.1226 F614
G03 Y-0.2804 X0.2804 J-0.2331 I0.3209
G03 Y-0.3966 X0.0000 J0.2804 I-0.2804
G01 Y-0.3917 X-0.0620
G01 Y-0.3772 X-0.1226
G01 Z1.5000 F100
G03 Y0.2331 X-0.3209 J0.3772 I0.1226 F614
G03 Y-0.2804 X0.2804 J-0.2331 I0.3209
G03 Y-0.3966 X0.0000 J0.2804 I-0.2804
G01 Y-0.3917 X-0.0620
G01 Y-0.3772 X-0.1226
G01 Z2.0000 F100
G03 Y0.2331 X-0.3209 J0.3772 I0.1226 F614
G03 Y-0.2804 X0.2804 J-0.2331 I0.3209
G03 Y-0.3966 X0.0000 J0.2804 I-0.2804
G01 Y-0.3917 X-0.0620
G01 Y-0.3772 X-0.1226
G01 Z2.5000 F100
G03 Y0.2331 X-0.3209 J0.3772 I0.1226 F614
G03 Y-0.2804 X0.2804 J-0.2331 I0.3209
G03 Y-0.3966 X0.0000 J0.2804 I-0.2804
G01 Y-0.3917 X-0.0620
G01 Y-0.3772 X-0.1226
G01 Z3.0000 F100
G03 Y0.2331 X-0.3209 J0.3772 I0.1226 F614
G03 Y-0.2804 X0.2804 J-0.2331 I0.3209
G03 Y-0.3966 X0.0000 J0.2804 I-0.2804
G01 Y-0.3917 X-0.0620
G01 Y-0.3772 X-0.1226
G01 Z3.5000 F100
G03 Y0.2331 X-0.3209 J0.3772 I0.1226 F614
G03 Y-0.2804 X0.2804 J-0.2331 I0.3209
G03 Y-0.3966 X0.0000 J0.2804 I-0.2804
G01 Y-0.3917 X-0.0620
G01 Y-0.3772 X-0.1226


(No. 7: Mill Wire / Drainage Hole F)
G00 Y-0.3772 X-0.1226 Z-25.0000
G00 Z-0.5000
G01 Z0.2500 F100
G01 Y-0.4729 X-0.1523 F307
G03 Y0.1523 X-0.4729 J0.4729 I0.1523
G03 Y0.4729 X0.1523 J-0.1523 I0.4729
G03 Y-0.1523 X0.4729 J-0.4729 I-0.1523
G03 Y-0.4729 X-0.1523 J0.1523 I-0.4729
G01 Y-0.3772 X-0.1226
G01 Z0.5000 F100
G01 Y-0.4729 X-0.1523 F307
G03 Y0.1523 X-0.4729 J0.4729 I0.1523
G03 Y0.4729 X0.1523 J-0.1523 I0.4729
G03 Y-0.1523 X0.4729 J-0.4729 I-0.1523
G03 Y-0.4729 X-0.1523 J0.1523 I-0.4729
G01 Y-0.3772 X-0.1226
G01 Z0.7500 F100
G01 Y-0.4729 X-0.1523 F307
G03 Y0.1523 X-0.4729 J0.4729 I0.1523
G03 Y0.4729 X0.1523 J-0.1523 I0.4729
G03 Y-0.1523 X0.4729 J-0.4729 I-0.1523
G03 Y-0.4729 X-0.1523 J0.1523 I-0.4729
G01 Y-0.3772 X-0.1226
G01 Z1.0000 F100
G01 Y-0.4729 X-0.1523 F307
G03 Y0.1523 X-0.4729 J0.4729 I0.1523
G03 Y0.4729 X0.1523 J-0.1523 I0.4729
G03 Y-0.1523 X0.4729 J-0.4729 I-0.1523
G03 Y-0.4729 X-0.1523 J0.1523 I-0.4729
G01 Y-0.3772 X-0.1226
G01 Z1.2500 F100
G01 Y-0.4729 X-0.1523 F307
G03 Y0.1523 X-0.4729 J0.4729 I0.1523
G03 Y0.4729 X0.1523 J-0.1523 I0.4729
G03 Y-0.1523 X0.4729 J-0.4729 I-0.1523
G03 Y-0.4729 X-0.1523 J0.1523 I-0.4729
G01 Y-0.3772 X-0.1226
G01 Z1.5000 F100
G01 Y-0.4729 X-0.1523 F307
G03 Y0.1523 X-0.4729 J0.4729 I0.1523
G03 Y0.4729 X0.1523 J-0.1523 I0.4729
G03 Y-0.1523 X0.4729 J-0.4729 I-0.1523
G03 Y-0.4729 X-0.1523 J0.1523 I-0.4729
G01 Y-0.3772 X-0.1226
G01 Z1.7500 F100
G01 Y-0.4729 X-0.1523 F307
G03 Y0.1523 X-0.4729 J0.4729 I0.1523
G03 Y0.4729 X0.1523 J-0.1523 I0.4729
G03 Y-0.1523 X0.4729 J-0.4729 I-0.1523
G03 Y-0.4729 X-0.1523 J0.1523 I-0.4729
G01 Y-0.3772 X-0.1226
G01 Z2.0000 F100
G01 Y-0.4729 X-0.1523 F307
G03 Y0.1523 X-0.4729 J0.4729 I0.1523
G03 Y0.4729 X0.1523 J-0.1523 I0.4729
G03 Y-0.1523 X0.4729 J-0.4729 I-0.1523
G03 Y-0.4729 X-0.1523 J0.1523 I-0.4729
G01 Y-0.3772 X-0.1226
G01 Z2.2500 F100
G01 Y-0.4729 X-0.1523 F307
G03 Y0.1523 X-0.4729 J0.4729 I0.1523
G03 Y0.4729 X0.1523 J-0.1523 I0.4729
G03 Y-0.1523 X0.4729 J-0.4729 I-0.1523
G03 Y-0.4729 X-0.1523 J0.1523 I-0.4729
G01 Y-0.3772 X-0.1226
G01 Z2.5000 F100
G01 Y-0.4729 X-0.1523 F307
G03 Y0.1523 X-0.4729 J0.4729 I0.1523
G03 Y0.4729 X0.1523 J-0.1523 I0.4729
G03 Y-0.1523 X0.4729 J-0.4729 I-0.1523
G03 Y-0.4729 X-0.1523 J0.1523 I-0.4729
G01 Y-0.3772 X-0.1226
G01 Z2.7500 F100
G01 Y-0.4729 X-0.1523 F307
G03 Y0.1523 X-0.4729 J0.4729 I0.1523
G03 Y0.4729 X0.1523 J-0.1523 I0.4729
G03 Y-0.1523 X0.4729 J-0.4729 I-0.1523
G03 Y-0.4729 X-0.1523 J0.1523 I-0.4729
G01 Y-0.3772 X-0.1226
G01 Z3.0000 F100
G01 Y-0.4729 X-0.1523 F307
G03 Y0.1523 X-0.4729 J0.4729 I0.1523
G03 Y0.4729 X0.1523 J-0.1523 I0.4729
G03 Y-0.1523 X0.4729 J-0.4729 I-0.1523
G03 Y-0.4729 X-0.1523 J0.1523 I-0.4729
G01 Y-0.3772 X-0.1226
G01 Z3.2500 F100
G01 Y-0.4729 X-0.1523 F307
G03 Y0.1523 X-0.4729 J0.4729 I0.1523
G03 Y0.4729 X0.1523 J-0.1523 I0.4729
G03 Y-0.1523 X0.4729 J-0.4729 I-0.1523
G03 Y-0.4729 X-0.1523 J0.1523 I-0.4729
G01 Y-0.3772 X-0.1226
G01 Z3.5000 F100
G01 Y-0.4729 X-0.1523 F307
G03 Y0.1523 X-0.4729 J0.4729 I0.1523
G03 Y0.4729 X0.1523 J-0.1523 I0.4729
G03 Y-0.1523 X0.4729 J-0.4729 I-0.1523
G03 Y-0.4729 X-0.1523 J0.1523 I-0.4729
G01 Y-0.3772 X-0.1226
G00 Z-25.0000


(No. 8: Stop After Wire / Drainage Hole)
G00 Y0.0000 X0.0000 Z-25.0000
O100 call
(MSG,Rotate 90 degrees - next hole is the LEFT SIDE for the left button)
O110 call



(No. 9: Mill Left Hand Side Button Hole)
G00 Y19.9000 X2.0000 Z-25.0000
G00 Z-0.5000
G03 Y18.5500 X2.7794 Z-0.3333 J-0.9000 I0.0000 F100
G03 X1.2206 Z-0.1667 J0.4500 I-0.7794
G03 Y19.9000 X2.0000 Z0.0000 J0.4500 I0.7794
G03 Y18.5500 X2.7794 J-0.9000 I0.0000
G03 X1.2206 J0.4500 I-0.7794
G03 Y19.9000 X2.0000 J0.4500 I0.7794
G03 Y18.5500 X2.7794 Z0.1667 J-0.9000 I0.0000
G03 X1.2206 Z0.3333 J0.4500 I-0.7794
G03 Y19.9000 X2.0000 Z0.5000 J0.4500 I0.7794
G03 Y18.5500 X2.7794 J-0.9000 I0.0000
G03 X1.2206 J0.4500 I-0.7794
G03 Y19.9000 X2.0000 J0.4500 I0.7794
G03 Y19.9354 X2.3875 J-0.8803 I0.2758 F614
G03 Y19.7955 X2.7955 J-1.0296 I-0.1251
G03 Y19.4736 X3.1433 J-0.9881 I-0.5917
G03 Y19.0000 X3.3500 J-0.7326 I-1.0326
G03 Y18.4403 X3.3512 J-0.2827 I-1.3510
G03 Y17.8863 X3.1137 J0.2996 I-1.4640
G03 Y17.4410 X2.6458 J0.9185 I-1.3201
G03 Y17.2000 X2.0000 J1.4602 I-0.9127
G03 Y17.2331 X1.2681 J1.8134 I-0.2847
G03 Y17.5681 X0.5681 J1.8905 I0.4746
G03 Y18.1820 X0.0252 J1.6461 I1.2429
G03 Y19.0000 X-0.2500 J1.0891 I1.8838
G03 Y19.9041 X-0.1827 J0.2854 I2.2714
G03 Y20.7501 X0.2499 J-0.6492 I2.3132
G03 Y21.3905 X1.0098 J-1.5655 I1.9693
G03 Y21.7000 X2.0000 J-2.3051 I1.2638
G03 Y21.5984 X3.0763 J-2.7270 I0.2856
G03 Y21.0683 X4.0683 J-2.7337 I-0.8232
G03 Y20.1624 X4.8063 J-2.2908 I-1.8870
G03 Y19.0000 X5.1500 J-1.4377 I-2.7248
G03 Y17.7515 X5.0142 J-0.2855 I-3.1810
G03 Y16.6135 X4.3865 J0.9969 I-3.1529
G03 Y15.7780 X3.3346 J2.2077 I-2.6114
G03 Y15.4000 X2.0000 J3.1436 I-1.6111
G03 Y15.5701 X0.5793 J3.6341 I-0.2854
G03 Y16.2953 X-0.7047 J3.5712 I1.1703
G03 Y17.4932 X-1.6378 J2.9315 I2.5279
G03 Y19.0000 X-2.0500 J1.7842 I3.5618
G03 Y20.5929 X-1.8456 J0.2853 I4.0865
G03 Y22.0229 X-1.0229 J-1.3435 I3.9890
G03 Y23.0535 X0.3210 J-2.8477 I3.2511
G03 Y23.5000 X2.0000 J-3.9795 I1.9571
G03 Y23.2614 X3.7651 J-4.5384 I0.2852
G03 Y22.3411 X5.3411 J-4.4064 I-1.5165
G03 Y20.8512 X6.4693 J-3.5705 I-3.1672
G03 Y19.0000 X6.9500 J-2.1298 I-4.3968
G03 Y17.0627 X6.6771 J-0.2851 I-4.9900
G03 Y15.3407 X5.6593 J1.6895 I-4.8235
G03 Y14.1150 X4.0234 J3.4866 I-3.8896
G03 Y13.6000 X2.0000 J4.8139 I-2.3024
G03 Y13.9071 X-0.1095 J5.4414 I-0.2850
G03 Y15.0225 X-1.9775 J5.2404 I1.8623
G03 Y16.8044 X-3.3008 J4.2086 I3.8057
G03 Y19.0000 X-3.8500 J2.4750 I5.2308
G03 Y21.2817 X-3.5086 J0.2848 I5.8925
G03 Y23.2957 X-2.2957 J-2.0350 I5.6571
G03 Y24.7165 X-0.3679 J-4.1247 I4.5275
G03 Y25.3000 X2.0000 J-5.6475 I2.6475
G03 Y24.9244 X4.4540 J-6.3435 I0.2847
G03 Y23.6139 X6.6139 J-6.0737 I-2.2076
G03 Y21.5401 X8.1323 J-4.8462 I-4.4436
G03 Y19.0000 X8.7500 J-2.8200 I-6.0641
G03 Y16.3738 X8.3401 J-0.2846 I-6.7943
G03 Y14.0679 X6.9321 J2.3802 I-6.4902
G03 Y12.4520 X4.7123 J4.7624 I-5.1649
G03 Y11.8000 X2.0000 J6.4806 I-2.9924
G03 Y12.2441 X-0.7984 J7.2451 I-0.2846
G03 Y13.7497 X-3.2503 J6.9066 I2.5528
G03 Y16.1155 X-4.9637 J5.4836 I5.0812
G03 Y19.0000 X-5.6500 J3.1648 I6.8970
G03 Y21.9706 X-5.1716 J0.2845 I7.6957
G03 Y24.5685 X-3.5685 J-2.7253 I7.3229
G03 Y26.3795 X-1.0567 J-5.3999 I5.8021
G03 Y27.1000 X2.0000 J-7.3133 I3.3371
G03 Y26.5874 X5.1428 J-8.1463 I0.2844
G03 Y24.8867 X7.8867 J-7.7391 I-2.8978
G03 Y22.2145 X9.7606 J-6.0440 I-5.7763
G03 Y19.0000 X10.4000 J-3.2145 I-7.7606
G03 Y15.7855 X9.7606 J0.0000 I-8.4000
G03 Y13.0603 X7.9397 J3.2145 I-7.7606
G03 Y11.2394 X5.2145 J5.9397 I-5.9397
G03 Y10.6000 X2.0000 J7.7606 I-3.2145
G03 Y11.2394 X-1.2145 J8.4000 I0.0000
G03 Y13.0603 X-3.9397 J7.7606 I3.2145
G03 Y15.7855 X-5.7606 J5.9397 I5.9397
G03 Y19.0000 X-6.4000 J3.2145 I7.7606
G03 Y22.2145 X-5.7606 J0.0000 I8.4000
G03 Y24.9397 X-3.9397 J-3.2145 I7.7606
G03 Y26.7606 X-1.2145 J-5.9397 I5.9397
G03 Y27.4000 X2.0000 J-7.7606 I3.2145
G03 Y14.8000 X9.2746 J-8.4000 I0.0000
G03 X-5.2746 J4.2000 I-7.2746
G03 Y27.4000 X2.0000 J4.2000 I7.2746
G03 Y18.1000 J-4.6500 I0.0000
G03 Y19.9000 J0.9000 I0.0000
G03 Y18.5500 X2.7794 Z0.6667 J-0.9000 I0.0000 F100
G03 X1.2206 Z0.8333 J0.4500 I-0.7794
G03 Y19.9000 X2.0000 Z1.0000 J0.4500 I0.7794
G03 Y18.5500 X2.7794 J-0.9000 I0.0000
G03 X1.2206 J0.4500 I-0.7794
G03 Y19.9000 X2.0000 J0.4500 I0.7794
G03 Y19.9354 X2.3875 J-0.8803 I0.2758 F614
G03 Y19.7955 X2.7955 J-1.0296 I-0.1251
G03 Y19.4736 X3.1433 J-0.9881 I-0.5917
G03 Y19.0000 X3.3500 J-0.7326 I-1.0326
G03 Y18.4403 X3.3512 J-0.2827 I-1.3510
G03 Y17.8863 X3.1137 J0.2996 I-1.4640
G03 Y17.4410 X2.6458 J0.9185 I-1.3201
G03 Y17.2000 X2.0000 J1.4602 I-0.9127
G03 Y17.2331 X1.2681 J1.8134 I-0.2847
G03 Y17.5681 X0.5681 J1.8905 I0.4746
G03 Y18.1820 X0.0252 J1.6461 I1.2429
G03 Y19.0000 X-0.2500 J1.0891 I1.8838
G03 Y19.9041 X-0.1827 J0.2854 I2.2714
G03 Y20.7501 X0.2499 J-0.6492 I2.3132
G03 Y21.3905 X1.0098 J-1.5655 I1.9693
G03 Y21.7000 X2.0000 J-2.3051 I1.2638
G03 Y21.5984 X3.0763 J-2.7270 I0.2856
G03 Y21.0683 X4.0683 J-2.7337 I-0.8232
G03 Y20.1624 X4.8063 J-2.2908 I-1.8870
G03 Y19.0000 X5.1500 J-1.4377 I-2.7248
G03 Y17.7515 X5.0142 J-0.2855 I-3.1810
G03 Y16.6135 X4.3865 J0.9969 I-3.1529
G03 Y15.7780 X3.3346 J2.2077 I-2.6114
G03 Y15.4000 X2.0000 J3.1436 I-1.6111
G03 Y15.5701 X0.5793 J3.6341 I-0.2854
G03 Y16.2953 X-0.7047 J3.5712 I1.1703
G03 Y17.4932 X-1.6378 J2.9315 I2.5279
G03 Y19.0000 X-2.0500 J1.7842 I3.5618
G03 Y20.5929 X-1.8456 J0.2853 I4.0865
G03 Y22.0229 X-1.0229 J-1.3435 I3.9890
G03 Y23.0535 X0.3210 J-2.8477 I3.2511
G03 Y23.5000 X2.0000 J-3.9795 I1.9571
G03 Y23.2614 X3.7651 J-4.5384 I0.2852
G03 Y22.3411 X5.3411 J-4.4064 I-1.5165
G03 Y20.8512 X6.4693 J-3.5705 I-3.1672
G03 Y19.0000 X6.9500 J-2.1298 I-4.3968
G03 Y17.0627 X6.6771 J-0.2851 I-4.9900
G03 Y15.3407 X5.6593 J1.6895 I-4.8235
G03 Y14.1150 X4.0234 J3.4866 I-3.8896
G03 Y13.6000 X2.0000 J4.8139 I-2.3024
G03 Y13.9071 X-0.1095 J5.4414 I-0.2850
G03 Y15.0225 X-1.9775 J5.2404 I1.8623
G03 Y16.8044 X-3.3008 J4.2086 I3.8057
G03 Y19.0000 X-3.8500 J2.4750 I5.2308
G03 Y21.2817 X-3.5086 J0.2848 I5.8925
G03 Y23.2957 X-2.2957 J-2.0350 I5.6571
G03 Y24.7165 X-0.3679 J-4.1247 I4.5275
G03 Y25.3000 X2.0000 J-5.6475 I2.6475
G03 Y24.9244 X4.4540 J-6.3435 I0.2847
G03 Y23.6139 X6.6139 J-6.0737 I-2.2076
G03 Y21.5401 X8.1323 J-4.8462 I-4.4436
G03 Y19.0000 X8.7500 J-2.8200 I-6.0641
G03 Y16.3738 X8.3401 J-0.2846 I-6.7943
G03 Y14.0679 X6.9321 J2.3802 I-6.4902
G03 Y12.4520 X4.7123 J4.7624 I-5.1649
G03 Y11.8000 X2.0000 J6.4806 I-2.9924
G03 Y12.2441 X-0.7984 J7.2451 I-0.2846
G03 Y13.7497 X-3.2503 J6.9066 I2.5528
G03 Y16.1155 X-4.9637 J5.4836 I5.0812
G03 Y19.0000 X-5.6500 J3.1648 I6.8970
G03 Y21.9706 X-5.1716 J0.2845 I7.6957
G03 Y24.5685 X-3.5685 J-2.7253 I7.3229
G03 Y26.3795 X-1.0567 J-5.3999 I5.8021
G03 Y27.1000 X2.0000 J-7.3133 I3.3371
G03 Y26.5874 X5.1428 J-8.1463 I0.2844
G03 Y24.8867 X7.8867 J-7.7391 I-2.8978
G03 Y22.2145 X9.7606 J-6.0440 I-5.7763
G03 Y19.0000 X10.4000 J-3.2145 I-7.7606
G03 Y15.7855 X9.7606 J0.0000 I-8.4000
G03 Y13.0603 X7.9397 J3.2145 I-7.7606
G03 Y11.2394 X5.2145 J5.9397 I-5.9397
G03 Y10.6000 X2.0000 J7.7606 I-3.2145
G03 Y11.2394 X-1.2145 J8.4000 I0.0000
G03 Y13.0603 X-3.9397 J7.7606 I3.2145
G03 Y15.7855 X-5.7606 J5.9397 I5.9397
G03 Y19.0000 X-6.4000 J3.2145 I7.7606
G03 Y22.2145 X-5.7606 J0.0000 I8.4000
G03 Y24.9397 X-3.9397 J-3.2145 I7.7606
G03 Y26.7606 X-1.2145 J-5.9397 I5.9397
G03 Y27.4000 X2.0000 J-7.7606 I3.2145
G03 Y14.8000 X9.2746 J-8.4000 I0.0000
G03 X-5.2746 J4.2000 I-7.2746
G03 Y27.4000 X2.0000 J4.2000 I7.2746
G03 Y18.1000 J-4.6500 I0.0000
G03 Y19.9000 J0.9000 I0.0000
G03 Y18.5500 X2.7794 Z1.1667 J-0.9000 I0.0000 F100
G03 X1.2206 Z1.3333 J0.4500 I-0.7794
G03 Y19.9000 X2.0000 Z1.5000 J0.4500 I0.7794
G03 Y18.5500 X2.7794 J-0.9000 I0.0000
G03 X1.2206 J0.4500 I-0.7794
G03 Y19.9000 X2.0000 J0.4500 I0.7794
G03 Y19.9354 X2.3875 J-0.8803 I0.2758 F614
G03 Y19.7955 X2.7955 J-1.0296 I-0.1251
G03 Y19.4736 X3.1433 J-0.9881 I-0.5917
G03 Y19.0000 X3.3500 J-0.7326 I-1.0326
G03 Y18.4403 X3.3512 J-0.2827 I-1.3510
G03 Y17.8863 X3.1137 J0.2996 I-1.4640
G03 Y17.4410 X2.6458 J0.9185 I-1.3201
G03 Y17.2000 X2.0000 J1.4602 I-0.9127
G03 Y17.2331 X1.2681 J1.8134 I-0.2847
G03 Y17.5681 X0.5681 J1.8905 I0.4746
G03 Y18.1820 X0.0252 J1.6461 I1.2429
G03 Y19.0000 X-0.2500 J1.0891 I1.8838
G03 Y19.9041 X-0.1827 J0.2854 I2.2714
G03 Y20.7501 X0.2499 J-0.6492 I2.3132
G03 Y21.3905 X1.0098 J-1.5655 I1.9693
G03 Y21.7000 X2.0000 J-2.3051 I1.2638
G03 Y21.5984 X3.0763 J-2.7270 I0.2856
G03 Y21.0683 X4.0683 J-2.7337 I-0.8232
G03 Y20.1624 X4.8063 J-2.2908 I-1.8870
G03 Y19.0000 X5.1500 J-1.4377 I-2.7248
G03 Y17.7515 X5.0142 J-0.2855 I-3.1810
G03 Y16.6135 X4.3865 J0.9969 I-3.1529
G03 Y15.7780 X3.3346 J2.2077 I-2.6114
G03 Y15.4000 X2.0000 J3.1436 I-1.6111
G03 Y15.5701 X0.5793 J3.6341 I-0.2854
G03 Y16.2953 X-0.7047 J3.5712 I1.1703
G03 Y17.4932 X-1.6378 J2.9315 I2.5279
G03 Y19.0000 X-2.0500 J1.7842 I3.5618
G03 Y20.5929 X-1.8456 J0.2853 I4.0865
G03 Y22.0229 X-1.0229 J-1.3435 I3.9890
G03 Y23.0535 X0.3210 J-2.8477 I3.2511
G03 Y23.5000 X2.0000 J-3.9795 I1.9571
G03 Y23.2614 X3.7651 J-4.5384 I0.2852
G03 Y22.3411 X5.3411 J-4.4064 I-1.5165
G03 Y20.8512 X6.4693 J-3.5705 I-3.1672
G03 Y19.0000 X6.9500 J-2.1298 I-4.3968
G03 Y17.0627 X6.6771 J-0.2851 I-4.9900
G03 Y15.3407 X5.6593 J1.6895 I-4.8235
G03 Y14.1150 X4.0234 J3.4866 I-3.8896
G03 Y13.6000 X2.0000 J4.8139 I-2.3024
G03 Y13.9071 X-0.1095 J5.4414 I-0.2850
G03 Y15.0225 X-1.9775 J5.2404 I1.8623
G03 Y16.8044 X-3.3008 J4.2086 I3.8057
G03 Y19.0000 X-3.8500 J2.4750 I5.2308
G03 Y21.2817 X-3.5086 J0.2848 I5.8925
G03 Y23.2957 X-2.2957 J-2.0350 I5.6571
G03 Y24.7165 X-0.3679 J-4.1247 I4.5275
G03 Y25.3000 X2.0000 J-5.6475 I2.6475
G03 Y24.9244 X4.4540 J-6.3435 I0.2847
G03 Y23.6139 X6.6139 J-6.0737 I-2.2076
G03 Y21.5401 X8.1323 J-4.8462 I-4.4436
G03 Y19.0000 X8.7500 J-2.8200 I-6.0641
G03 Y16.3738 X8.3401 J-0.2846 I-6.7943
G03 Y14.0679 X6.9321 J2.3802 I-6.4902
G03 Y12.4520 X4.7123 J4.7624 I-5.1649
G03 Y11.8000 X2.0000 J6.4806 I-2.9924
G03 Y12.2441 X-0.7984 J7.2451 I-0.2846
G03 Y13.7497 X-3.2503 J6.9066 I2.5528
G03 Y16.1155 X-4.9637 J5.4836 I5.0812
G03 Y19.0000 X-5.6500 J3.1648 I6.8970
G03 Y21.9706 X-5.1716 J0.2845 I7.6957
G03 Y24.5685 X-3.5685 J-2.7253 I7.3229
G03 Y26.3795 X-1.0567 J-5.3999 I5.8021
G03 Y27.1000 X2.0000 J-7.3133 I3.3371
G03 Y26.5874 X5.1428 J-8.1463 I0.2844
G03 Y24.8867 X7.8867 J-7.7391 I-2.8978
G03 Y22.2145 X9.7606 J-6.0440 I-5.7763
G03 Y19.0000 X10.4000 J-3.2145 I-7.7606
G03 Y15.7855 X9.7606 J0.0000 I-8.4000
G03 Y13.0603 X7.9397 J3.2145 I-7.7606
G03 Y11.2394 X5.2145 J5.9397 I-5.9397
G03 Y10.6000 X2.0000 J7.7606 I-3.2145
G03 Y11.2394 X-1.2145 J8.4000 I0.0000
G03 Y13.0603 X-3.9397 J7.7606 I3.2145
G03 Y15.7855 X-5.7606 J5.9397 I5.9397
G03 Y19.0000 X-6.4000 J3.2145 I7.7606
G03 Y22.2145 X-5.7606 J0.0000 I8.4000
G03 Y24.9397 X-3.9397 J-3.2145 I7.7606
G03 Y26.7606 X-1.2145 J-5.9397 I5.9397
G03 Y27.4000 X2.0000 J-7.7606 I3.2145
G03 Y14.8000 X9.2746 J-8.4000 I0.0000
G03 X-5.2746 J4.2000 I-7.2746
G03 Y27.4000 X2.0000 J4.2000 I7.2746
G03 Y18.1000 J-4.6500 I0.0000
G03 Y19.9000 J0.9000 I0.0000
G03 Y18.5500 X2.7794 Z1.6667 J-0.9000 I0.0000 F100
G03 X1.2206 Z1.8333 J0.4500 I-0.7794
G03 Y19.9000 X2.0000 Z2.0000 J0.4500 I0.7794
G03 Y18.5500 X2.7794 J-0.9000 I0.0000
G03 X1.2206 J0.4500 I-0.7794
G03 Y19.9000 X2.0000 J0.4500 I0.7794
G03 Y19.9354 X2.3875 J-0.8803 I0.2758 F614
G03 Y19.7955 X2.7955 J-1.0296 I-0.1251
G03 Y19.4736 X3.1433 J-0.9881 I-0.5917
G03 Y19.0000 X3.3500 J-0.7326 I-1.0326
G03 Y18.4403 X3.3512 J-0.2827 I-1.3510
G03 Y17.8863 X3.1137 J0.2996 I-1.4640
G03 Y17.4410 X2.6458 J0.9185 I-1.3201
G03 Y17.2000 X2.0000 J1.4602 I-0.9127
G03 Y17.2331 X1.2681 J1.8134 I-0.2847
G03 Y17.5681 X0.5681 J1.8905 I0.4746
G03 Y18.1820 X0.0252 J1.6461 I1.2429
G03 Y19.0000 X-0.2500 J1.0891 I1.8838
G03 Y19.9041 X-0.1827 J0.2854 I2.2714
G03 Y20.7501 X0.2499 J-0.6492 I2.3132
G03 Y21.3905 X1.0098 J-1.5655 I1.9693
G03 Y21.7000 X2.0000 J-2.3051 I1.2638
G03 Y21.5984 X3.0763 J-2.7270 I0.2856
G03 Y21.0683 X4.0683 J-2.7337 I-0.8232
G03 Y20.1624 X4.8063 J-2.2908 I-1.8870
G03 Y19.0000 X5.1500 J-1.4377 I-2.7248
G03 Y17.7515 X5.0142 J-0.2855 I-3.1810
G03 Y16.6135 X4.3865 J0.9969 I-3.1529
G03 Y15.7780 X3.3346 J2.2077 I-2.6114
G03 Y15.4000 X2.0000 J3.1436 I-1.6111
G03 Y15.5701 X0.5793 J3.6341 I-0.2854
G03 Y16.2953 X-0.7047 J3.5712 I1.1703
G03 Y17.4932 X-1.6378 J2.9315 I2.5279
G03 Y19.0000 X-2.0500 J1.7842 I3.5618
G03 Y20.5929 X-1.8456 J0.2853 I4.0865
G03 Y22.0229 X-1.0229 J-1.3435 I3.9890
G03 Y23.0535 X0.3210 J-2.8477 I3.2511
G03 Y23.5000 X2.0000 J-3.9795 I1.9571
G03 Y23.2614 X3.7651 J-4.5384 I0.2852
G03 Y22.3411 X5.3411 J-4.4064 I-1.5165
G03 Y20.8512 X6.4693 J-3.5705 I-3.1672
G03 Y19.0000 X6.9500 J-2.1298 I-4.3968
G03 Y17.0627 X6.6771 J-0.2851 I-4.9900
G03 Y15.3407 X5.6593 J1.6895 I-4.8235
G03 Y14.1150 X4.0234 J3.4866 I-3.8896
G03 Y13.6000 X2.0000 J4.8139 I-2.3024
G03 Y13.9071 X-0.1095 J5.4414 I-0.2850
G03 Y15.0225 X-1.9775 J5.2404 I1.8623
G03 Y16.8044 X-3.3008 J4.2086 I3.8057
G03 Y19.0000 X-3.8500 J2.4750 I5.2308
G03 Y21.2817 X-3.5086 J0.2848 I5.8925
G03 Y23.2957 X-2.2957 J-2.0350 I5.6571
G03 Y24.7165 X-0.3679 J-4.1247 I4.5275
G03 Y25.3000 X2.0000 J-5.6475 I2.6475
G03 Y24.9244 X4.4540 J-6.3435 I0.2847
G03 Y23.6139 X6.6139 J-6.0737 I-2.2076
G03 Y21.5401 X8.1323 J-4.8462 I-4.4436
G03 Y19.0000 X8.7500 J-2.8200 I-6.0641
G03 Y16.3738 X8.3401 J-0.2846 I-6.7943
G03 Y14.0679 X6.9321 J2.3802 I-6.4902
G03 Y12.4520 X4.7123 J4.7624 I-5.1649
G03 Y11.8000 X2.0000 J6.4806 I-2.9924
G03 Y12.2441 X-0.7984 J7.2451 I-0.2846
G03 Y13.7497 X-3.2503 J6.9066 I2.5528
G03 Y16.1155 X-4.9637 J5.4836 I5.0812
G03 Y19.0000 X-5.6500 J3.1648 I6.8970
G03 Y21.9706 X-5.1716 J0.2845 I7.6957
G03 Y24.5685 X-3.5685 J-2.7253 I7.3229
G03 Y26.3795 X-1.0567 J-5.3999 I5.8021
G03 Y27.1000 X2.0000 J-7.3133 I3.3371
G03 Y26.5874 X5.1428 J-8.1463 I0.2844
G03 Y24.8867 X7.8867 J-7.7391 I-2.8978
G03 Y22.2145 X9.7606 J-6.0440 I-5.7763
G03 Y19.0000 X10.4000 J-3.2145 I-7.7606
G03 Y15.7855 X9.7606 J0.0000 I-8.4000
G03 Y13.0603 X7.9397 J3.2145 I-7.7606
G03 Y11.2394 X5.2145 J5.9397 I-5.9397
G03 Y10.6000 X2.0000 J7.7606 I-3.2145
G03 Y11.2394 X-1.2145 J8.4000 I0.0000
G03 Y13.0603 X-3.9397 J7.7606 I3.2145
G03 Y15.7855 X-5.7606 J5.9397 I5.9397
G03 Y19.0000 X-6.4000 J3.2145 I7.7606
G03 Y22.2145 X-5.7606 J0.0000 I8.4000
G03 Y24.9397 X-3.9397 J-3.2145 I7.7606
G03 Y26.7606 X-1.2145 J-5.9397 I5.9397
G03 Y27.4000 X2.0000 J-7.7606 I3.2145
G03 Y14.8000 X9.2746 J-8.4000 I0.0000
G03 X-5.2746 J4.2000 I-7.2746
G03 Y27.4000 X2.0000 J4.2000 I7.2746
G03 Y18.1000 J-4.6500 I0.0000
G03 Y19.9000 J0.9000 I0.0000
G03 Y18.5500 X2.7794 Z2.1667 J-0.9000 I0.0000 F100
G03 X1.2206 Z2.3333 J0.4500 I-0.7794
G03 Y19.9000 X2.0000 Z2.5000 J0.4500 I0.7794
G03 Y18.5500 X2.7794 J-0.9000 I0.0000
G03 X1.2206 J0.4500 I-0.7794
G03 Y19.9000 X2.0000 J0.4500 I0.7794
G03 Y19.9354 X2.3875 J-0.8803 I0.2758 F614
G03 Y19.7955 X2.7955 J-1.0296 I-0.1251
G03 Y19.4736 X3.1433 J-0.9881 I-0.5917
G03 Y19.0000 X3.3500 J-0.7326 I-1.0326
G03 Y18.4403 X3.3512 J-0.2827 I-1.3510
G03 Y17.8863 X3.1137 J0.2996 I-1.4640
G03 Y17.4410 X2.6458 J0.9185 I-1.3201
G03 Y17.2000 X2.0000 J1.4602 I-0.9127
G03 Y17.2331 X1.2681 J1.8134 I-0.2847
G03 Y17.5681 X0.5681 J1.8905 I0.4746
G03 Y18.1820 X0.0252 J1.6461 I1.2429
G03 Y19.0000 X-0.2500 J1.0891 I1.8838
G03 Y19.9041 X-0.1827 J0.2854 I2.2714
G03 Y20.7501 X0.2499 J-0.6492 I2.3132
G03 Y21.3905 X1.0098 J-1.5655 I1.9693
G03 Y21.7000 X2.0000 J-2.3051 I1.2638
G03 Y21.5984 X3.0763 J-2.7270 I0.2856
G03 Y21.0683 X4.0683 J-2.7337 I-0.8232
G03 Y20.1624 X4.8063 J-2.2908 I-1.8870
G03 Y19.0000 X5.1500 J-1.4377 I-2.7248
G03 Y17.7515 X5.0142 J-0.2855 I-3.1810
G03 Y16.6135 X4.3865 J0.9969 I-3.1529
G03 Y15.7780 X3.3346 J2.2077 I-2.6114
G03 Y15.4000 X2.0000 J3.1436 I-1.6111
G03 Y15.5701 X0.5793 J3.6341 I-0.2854
G03 Y16.2953 X-0.7047 J3.5712 I1.1703
G03 Y17.4932 X-1.6378 J2.9315 I2.5279
G03 Y19.0000 X-2.0500 J1.7842 I3.5618
G03 Y20.5929 X-1.8456 J0.2853 I4.0865
G03 Y22.0229 X-1.0229 J-1.3435 I3.9890
G03 Y23.0535 X0.3210 J-2.8477 I3.2511
G03 Y23.5000 X2.0000 J-3.9795 I1.9571
G03 Y23.2614 X3.7651 J-4.5384 I0.2852
G03 Y22.3411 X5.3411 J-4.4064 I-1.5165
G03 Y20.8512 X6.4693 J-3.5705 I-3.1672
G03 Y19.0000 X6.9500 J-2.1298 I-4.3968
G03 Y17.0627 X6.6771 J-0.2851 I-4.9900
G03 Y15.3407 X5.6593 J1.6895 I-4.8235
G03 Y14.1150 X4.0234 J3.4866 I-3.8896
G03 Y13.6000 X2.0000 J4.8139 I-2.3024
G03 Y13.9071 X-0.1095 J5.4414 I-0.2850
G03 Y15.0225 X-1.9775 J5.2404 I1.8623
G03 Y16.8044 X-3.3008 J4.2086 I3.8057
G03 Y19.0000 X-3.8500 J2.4750 I5.2308
G03 Y21.2817 X-3.5086 J0.2848 I5.8925
G03 Y23.2957 X-2.2957 J-2.0350 I5.6571
G03 Y24.7165 X-0.3679 J-4.1247 I4.5275
G03 Y25.3000 X2.0000 J-5.6475 I2.6475
G03 Y24.9244 X4.4540 J-6.3435 I0.2847
G03 Y23.6139 X6.6139 J-6.0737 I-2.2076
G03 Y21.5401 X8.1323 J-4.8462 I-4.4436
G03 Y19.0000 X8.7500 J-2.8200 I-6.0641
G03 Y16.3738 X8.3401 J-0.2846 I-6.7943
G03 Y14.0679 X6.9321 J2.3802 I-6.4902
G03 Y12.4520 X4.7123 J4.7624 I-5.1649
G03 Y11.8000 X2.0000 J6.4806 I-2.9924
G03 Y12.2441 X-0.7984 J7.2451 I-0.2846
G03 Y13.7497 X-3.2503 J6.9066 I2.5528
G03 Y16.1155 X-4.9637 J5.4836 I5.0812
G03 Y19.0000 X-5.6500 J3.1648 I6.8970
G03 Y21.9706 X-5.1716 J0.2845 I7.6957
G03 Y24.5685 X-3.5685 J-2.7253 I7.3229
G03 Y26.3795 X-1.0567 J-5.3999 I5.8021
G03 Y27.1000 X2.0000 J-7.3133 I3.3371
G03 Y26.5874 X5.1428 J-8.1463 I0.2844
G03 Y24.8867 X7.8867 J-7.7391 I-2.8978
G03 Y22.2145 X9.7606 J-6.0440 I-5.7763
G03 Y19.0000 X10.4000 J-3.2145 I-7.7606
G03 Y15.7855 X9.7606 J0.0000 I-8.4000
G03 Y13.0603 X7.9397 J3.2145 I-7.7606
G03 Y11.2394 X5.2145 J5.9397 I-5.9397
G03 Y10.6000 X2.0000 J7.7606 I-3.2145
G03 Y11.2394 X-1.2145 J8.4000 I0.0000
G03 Y13.0603 X-3.9397 J7.7606 I3.2145
G03 Y15.7855 X-5.7606 J5.9397 I5.9397
G03 Y19.0000 X-6.4000 J3.2145 I7.7606
G03 Y22.2145 X-5.7606 J0.0000 I8.4000
G03 Y24.9397 X-3.9397 J-3.2145 I7.7606
G03 Y26.7606 X-1.2145 J-5.9397 I5.9397
G03 Y27.4000 X2.0000 J-7.7606 I3.2145
G03 Y14.8000 X9.2746 J-8.4000 I0.0000
G03 X-5.2746 J4.2000 I-7.2746
G03 Y27.4000 X2.0000 J4.2000 I7.2746
G03 Y18.1000 J-4.6500 I0.0000
G03 Y19.9000 J0.9000 I0.0000
G03 Y18.5500 X2.7794 Z2.6667 J-0.9000 I0.0000 F100
G03 X1.2206 Z2.8333 J0.4500 I-0.7794
G03 Y19.9000 X2.0000 Z3.0000 J0.4500 I0.7794
G03 Y18.5500 X2.7794 J-0.9000 I0.0000
G03 X1.2206 J0.4500 I-0.7794
G03 Y19.9000 X2.0000 J0.4500 I0.7794
G03 Y19.9354 X2.3875 J-0.8803 I0.2758 F614
G03 Y19.7955 X2.7955 J-1.0296 I-0.1251
G03 Y19.4736 X3.1433 J-0.9881 I-0.5917
G03 Y19.0000 X3.3500 J-0.7326 I-1.0326
G03 Y18.4403 X3.3512 J-0.2827 I-1.3510
G03 Y17.8863 X3.1137 J0.2996 I-1.4640
G03 Y17.4410 X2.6458 J0.9185 I-1.3201
G03 Y17.2000 X2.0000 J1.4602 I-0.9127
G03 Y17.2331 X1.2681 J1.8134 I-0.2847
G03 Y17.5681 X0.5681 J1.8905 I0.4746
G03 Y18.1820 X0.0252 J1.6461 I1.2429
G03 Y19.0000 X-0.2500 J1.0891 I1.8838
G03 Y19.9041 X-0.1827 J0.2854 I2.2714
G03 Y20.7501 X0.2499 J-0.6492 I2.3132
G03 Y21.3905 X1.0098 J-1.5655 I1.9693
G03 Y21.7000 X2.0000 J-2.3051 I1.2638
G03 Y21.5984 X3.0763 J-2.7270 I0.2856
G03 Y21.0683 X4.0683 J-2.7337 I-0.8232
G03 Y20.1624 X4.8063 J-2.2908 I-1.8870
G03 Y19.0000 X5.1500 J-1.4377 I-2.7248
G03 Y17.7515 X5.0142 J-0.2855 I-3.1810
G03 Y16.6135 X4.3865 J0.9969 I-3.1529
G03 Y15.7780 X3.3346 J2.2077 I-2.6114
G03 Y15.4000 X2.0000 J3.1436 I-1.6111
G03 Y15.5701 X0.5793 J3.6341 I-0.2854
G03 Y16.2953 X-0.7047 J3.5712 I1.1703
G03 Y17.4932 X-1.6378 J2.9315 I2.5279
G03 Y19.0000 X-2.0500 J1.7842 I3.5618
G03 Y20.5929 X-1.8456 J0.2853 I4.0865
G03 Y22.0229 X-1.0229 J-1.3435 I3.9890
G03 Y23.0535 X0.3210 J-2.8477 I3.2511
G03 Y23.5000 X2.0000 J-3.9795 I1.9571
G03 Y23.2614 X3.7651 J-4.5384 I0.2852
G03 Y22.3411 X5.3411 J-4.4064 I-1.5165
G03 Y20.8512 X6.4693 J-3.5705 I-3.1672
G03 Y19.0000 X6.9500 J-2.1298 I-4.3968
G03 Y17.0627 X6.6771 J-0.2851 I-4.9900
G03 Y15.3407 X5.6593 J1.6895 I-4.8235
G03 Y14.1150 X4.0234 J3.4866 I-3.8896
G03 Y13.6000 X2.0000 J4.8139 I-2.3024
G03 Y13.9071 X-0.1095 J5.4414 I-0.2850
G03 Y15.0225 X-1.9775 J5.2404 I1.8623
G03 Y16.8044 X-3.3008 J4.2086 I3.8057
G03 Y19.0000 X-3.8500 J2.4750 I5.2308
G03 Y21.2817 X-3.5086 J0.2848 I5.8925
G03 Y23.2957 X-2.2957 J-2.0350 I5.6571
G03 Y24.7165 X-0.3679 J-4.1247 I4.5275
G03 Y25.3000 X2.0000 J-5.6475 I2.6475
G03 Y24.9244 X4.4540 J-6.3435 I0.2847
G03 Y23.6139 X6.6139 J-6.0737 I-2.2076
G03 Y21.5401 X8.1323 J-4.8462 I-4.4436
G03 Y19.0000 X8.7500 J-2.8200 I-6.0641
G03 Y16.3738 X8.3401 J-0.2846 I-6.7943
G03 Y14.0679 X6.9321 J2.3802 I-6.4902
G03 Y12.4520 X4.7123 J4.7624 I-5.1649
G03 Y11.8000 X2.0000 J6.4806 I-2.9924
G03 Y12.2441 X-0.7984 J7.2451 I-0.2846
G03 Y13.7497 X-3.2503 J6.9066 I2.5528
G03 Y16.1155 X-4.9637 J5.4836 I5.0812
G03 Y19.0000 X-5.6500 J3.1648 I6.8970
G03 Y21.9706 X-5.1716 J0.2845 I7.6957
G03 Y24.5685 X-3.5685 J-2.7253 I7.3229
G03 Y26.3795 X-1.0567 J-5.3999 I5.8021
G03 Y27.1000 X2.0000 J-7.3133 I3.3371
G03 Y26.5874 X5.1428 J-8.1463 I0.2844
G03 Y24.8867 X7.8867 J-7.7391 I-2.8978
G03 Y22.2145 X9.7606 J-6.0440 I-5.7763
G03 Y19.0000 X10.4000 J-3.2145 I-7.7606
G03 Y15.7855 X9.7606 J0.0000 I-8.4000
G03 Y13.0603 X7.9397 J3.2145 I-7.7606
G03 Y11.2394 X5.2145 J5.9397 I-5.9397
G03 Y10.6000 X2.0000 J7.7606 I-3.2145
G03 Y11.2394 X-1.2145 J8.4000 I0.0000
G03 Y13.0603 X-3.9397 J7.7606 I3.2145
G03 Y15.7855 X-5.7606 J5.9397 I5.9397
G03 Y19.0000 X-6.4000 J3.2145 I7.7606
G03 Y22.2145 X-5.7606 J0.0000 I8.4000
G03 Y24.9397 X-3.9397 J-3.2145 I7.7606
G03 Y26.7606 X-1.2145 J-5.9397 I5.9397
G03 Y27.4000 X2.0000 J-7.7606 I3.2145
G03 Y14.8000 X9.2746 J-8.4000 I0.0000
G03 X-5.2746 J4.2000 I-7.2746
G03 Y27.4000 X2.0000 J4.2000 I7.2746
G03 Y18.1000 J-4.6500 I0.0000
G03 Y19.9000 J0.9000 I0.0000
G03 Y18.5500 X2.7794 Z3.1667 J-0.9000 I0.0000 F100
G03 X1.2206 Z3.3333 J0.4500 I-0.7794
G03 Y19.9000 X2.0000 Z3.5000 J0.4500 I0.7794
G03 Y18.5500 X2.7794 J-0.9000 I0.0000
G03 X1.2206 J0.4500 I-0.7794
G03 Y19.9000 X2.0000 J0.4500 I0.7794
G03 Y19.9354 X2.3875 J-0.8803 I0.2758 F614
G03 Y19.7955 X2.7955 J-1.0296 I-0.1251
G03 Y19.4736 X3.1433 J-0.9881 I-0.5917
G03 Y19.0000 X3.3500 J-0.7326 I-1.0326
G03 Y18.4403 X3.3512 J-0.2827 I-1.3510
G03 Y17.8863 X3.1137 J0.2996 I-1.4640
G03 Y17.4410 X2.6458 J0.9185 I-1.3201
G03 Y17.2000 X2.0000 J1.4602 I-0.9127
G03 Y17.2331 X1.2681 J1.8134 I-0.2847
G03 Y17.5681 X0.5681 J1.8905 I0.4746
G03 Y18.1820 X0.0252 J1.6461 I1.2429
G03 Y19.0000 X-0.2500 J1.0891 I1.8838
G03 Y19.9041 X-0.1827 J0.2854 I2.2714
G03 Y20.7501 X0.2499 J-0.6492 I2.3132
G03 Y21.3905 X1.0098 J-1.5655 I1.9693
G03 Y21.7000 X2.0000 J-2.3051 I1.2638
G03 Y21.5984 X3.0763 J-2.7270 I0.2856
G03 Y21.0683 X4.0683 J-2.7337 I-0.8232
G03 Y20.1624 X4.8063 J-2.2908 I-1.8870
G03 Y19.0000 X5.1500 J-1.4377 I-2.7248
G03 Y17.7515 X5.0142 J-0.2855 I-3.1810
G03 Y16.6135 X4.3865 J0.9969 I-3.1529
G03 Y15.7780 X3.3346 J2.2077 I-2.6114
G03 Y15.4000 X2.0000 J3.1436 I-1.6111
G03 Y15.5701 X0.5793 J3.6341 I-0.2854
G03 Y16.2953 X-0.7047 J3.5712 I1.1703
G03 Y17.4932 X-1.6378 J2.9315 I2.5279
G03 Y19.0000 X-2.0500 J1.7842 I3.5618
G03 Y20.5929 X-1.8456 J0.2853 I4.0865
G03 Y22.0229 X-1.0229 J-1.3435 I3.9890
G03 Y23.0535 X0.3210 J-2.8477 I3.2511
G03 Y23.5000 X2.0000 J-3.9795 I1.9571
G03 Y23.2614 X3.7651 J-4.5384 I0.2852
G03 Y22.3411 X5.3411 J-4.4064 I-1.5165
G03 Y20.8512 X6.4693 J-3.5705 I-3.1672
G03 Y19.0000 X6.9500 J-2.1298 I-4.3968
G03 Y17.0627 X6.6771 J-0.2851 I-4.9900
G03 Y15.3407 X5.6593 J1.6895 I-4.8235
G03 Y14.1150 X4.0234 J3.4866 I-3.8896
G03 Y13.6000 X2.0000 J4.8139 I-2.3024
G03 Y13.9071 X-0.1095 J5.4414 I-0.2850
G03 Y15.0225 X-1.9775 J5.2404 I1.8623
G03 Y16.8044 X-3.3008 J4.2086 I3.8057
G03 Y19.0000 X-3.8500 J2.4750 I5.2308
G03 Y21.2817 X-3.5086 J0.2848 I5.8925
G03 Y23.2957 X-2.2957 J-2.0350 I5.6571
G03 Y24.7165 X-0.3679 J-4.1247 I4.5275
G03 Y25.3000 X2.0000 J-5.6475 I2.6475
G03 Y24.9244 X4.4540 J-6.3435 I0.2847
G03 Y23.6139 X6.6139 J-6.0737 I-2.2076
G03 Y21.5401 X8.1323 J-4.8462 I-4.4436
G03 Y19.0000 X8.7500 J-2.8200 I-6.0641
G03 Y16.3738 X8.3401 J-0.2846 I-6.7943
G03 Y14.0679 X6.9321 J2.3802 I-6.4902
G03 Y12.4520 X4.7123 J4.7624 I-5.1649
G03 Y11.8000 X2.0000 J6.4806 I-2.9924
G03 Y12.2441 X-0.7984 J7.2451 I-0.2846
G03 Y13.7497 X-3.2503 J6.9066 I2.5528
G03 Y16.1155 X-4.9637 J5.4836 I5.0812
G03 Y19.0000 X-5.6500 J3.1648 I6.8970
G03 Y21.9706 X-5.1716 J0.2845 I7.6957
G03 Y24.5685 X-3.5685 J-2.7253 I7.3229
G03 Y26.3795 X-1.0567 J-5.3999 I5.8021
G03 Y27.1000 X2.0000 J-7.3133 I3.3371
G03 Y26.5874 X5.1428 J-8.1463 I0.2844
G03 Y24.8867 X7.8867 J-7.7391 I-2.8978
G03 Y22.2145 X9.7606 J-6.0440 I-5.7763
G03 Y19.0000 X10.4000 J-3.2145 I-7.7606
G03 Y15.7855 X9.7606 J0.0000 I-8.4000
G03 Y13.0603 X7.9397 J3.2145 I-7.7606
G03 Y11.2394 X5.2145 J5.9397 I-5.9397
G03 Y10.6000 X2.0000 J7.7606 I-3.2145
G03 Y11.2394 X-1.2145 J8.4000 I0.0000
G03 Y13.0603 X-3.9397 J7.7606 I3.2145
G03 Y15.7855 X-5.7606 J5.9397 I5.9397
G03 Y19.0000 X-6.4000 J3.2145 I7.7606
G03 Y22.2145 X-5.7606 J0.0000 I8.4000
G03 Y24.9397 X-3.9397 J-3.2145 I7.7606
G03 Y26.7606 X-1.2145 J-5.9397 I5.9397
G03 Y27.4000 X2.0000 J-7.7606 I3.2145
G03 Y14.8000 X9.2746 J-8.4000 I0.0000
G03 X-5.2746 J4.2000 I-7.2746
G03 Y27.4000 X2.0000 J4.2000 I7.2746
G03 Y26.4000 X3.0000 Z3.0000 J-1.0000 I0.0000 F100
G00 Z-25.0000


(No. 10: Mill Left Hand Side Button Hole F)
G00 Y10.8632 X-0.0836 Z-25.0000
G00 Z-0.5000
G01 Z0.5000 F100
G03 Y21.0836 X-6.1368 J8.1368 I2.0836 F614
G03 Y27.1368 X4.0836 J-2.0836 I8.1368
G03 Y16.9164 X10.1368 J-8.1368 I-2.0836
G03 Y10.8632 X-0.0836 J2.0836 I-8.1368
G01 Z1.0000 F100
G03 Y21.0836 X-6.1368 J8.1368 I2.0836 F614
G03 Y27.1368 X4.0836 J-2.0836 I8.1368
G03 Y16.9164 X10.1368 J-8.1368 I-2.0836
G03 Y10.8632 X-0.0836 J2.0836 I-8.1368
G01 Z1.5000 F100
G03 Y21.0836 X-6.1368 J8.1368 I2.0836 F614
G03 Y27.1368 X4.0836 J-2.0836 I8.1368
G03 Y16.9164 X10.1368 J-8.1368 I-2.0836
G03 Y10.8632 X-0.0836 J2.0836 I-8.1368
G01 Z2.0000 F100
G03 Y21.0836 X-6.1368 J8.1368 I2.0836 F614
G03 Y27.1368 X4.0836 J-2.0836 I8.1368
G03 Y16.9164 X10.1368 J-8.1368 I-2.0836
G03 Y10.8632 X-0.0836 J2.0836 I-8.1368
G01 Z2.5000 F100
G03 Y21.0836 X-6.1368 J8.1368 I2.0836 F614
G03 Y27.1368 X4.0836 J-2.0836 I8.1368
G03 Y16.9164 X10.1368 J-8.1368 I-2.0836
G03 Y10.8632 X-0.0836 J2.0836 I-8.1368
G01 Z3.0000 F100
G03 Y21.0836 X-6.1368 J8.1368 I2.0836 F614
G03 Y27.1368 X4.0836 J-2.0836 I8.1368
G03 Y16.9164 X10.1368 J-8.1368 I-2.0836
G03 Y10.8632 X-0.0836 J2.0836 I-8.1368
G01 Z3.5000 F100
G03 Y21.0836 X-6.1368 J8.1368 I2.0836 F614
G03 Y27.1368 X4.0836 J-2.0836 I8.1368
G03 Y16.9164 X10.1368 J-8.1368 I-2.0836
G03 Y10.8632 X-0.0836 J2.0836 I-8.1368


(No. 11: Mill Left Hand Side Button Hole F)
G00 Y10.8632 X-0.0836 Z-25.0000
G00 Z-0.5000
G01 Z0.2500 F100
G01 Y10.7657 X-0.1054 F307
G03 Y21.1054 X-6.2343 J8.2343 I2.1054
G03 Y27.2343 X4.1054 J-2.1054 I8.2343
G03 Y16.8946 X10.2343 J-8.2343 I-2.1054
G03 Y10.7657 X-0.1054 J2.1054 I-8.2343
G01 Y10.8632 X-0.0836
G01 Z0.5000 F100
G01 Y10.7657 X-0.1054 F307
G03 Y21.1054 X-6.2343 J8.2343 I2.1054
G03 Y27.2343 X4.1054 J-2.1054 I8.2343
G03 Y16.8946 X10.2343 J-8.2343 I-2.1054
G03 Y10.7657 X-0.1054 J2.1054 I-8.2343
G01 Y10.8632 X-0.0836
G01 Z0.7500 F100
G01 Y10.7657 X-0.1054 F307
G03 Y21.1054 X-6.2343 J8.2343 I2.1054
G03 Y27.2343 X4.1054 J-2.1054 I8.2343
G03 Y16.8946 X10.2343 J-8.2343 I-2.1054
G03 Y10.7657 X-0.1054 J2.1054 I-8.2343
G01 Y10.8632 X-0.0836
G01 Z1.0000 F100
G01 Y10.7657 X-0.1054 F307
G03 Y21.1054 X-6.2343 J8.2343 I2.1054
G03 Y27.2343 X4.1054 J-2.1054 I8.2343
G03 Y16.8946 X10.2343 J-8.2343 I-2.1054
G03 Y10.7657 X-0.1054 J2.1054 I-8.2343
G01 Y10.8632 X-0.0836
G01 Z1.2500 F100
G01 Y10.7657 X-0.1054 F307
G03 Y21.1054 X-6.2343 J8.2343 I2.1054
G03 Y27.2343 X4.1054 J-2.1054 I8.2343
G03 Y16.8946 X10.2343 J-8.2343 I-2.1054
G03 Y10.7657 X-0.1054 J2.1054 I-8.2343
G01 Y10.8632 X-0.0836
G01 Z1.5000 F100
G01 Y10.7657 X-0.1054 F307
G03 Y21.1054 X-6.2343 J8.2343 I2.1054
G03 Y27.2343 X4.1054 J-2.1054 I8.2343
G03 Y16.8946 X10.2343 J-8.2343 I-2.1054
G03 Y10.7657 X-0.1054 J2.1054 I-8.2343
G01 Y10.8632 X-0.0836
G01 Z1.7500 F100
G01 Y10.7657 X-0.1054 F307
G03 Y21.1054 X-6.2343 J8.2343 I2.1054
G03 Y27.2343 X4.1054 J-2.1054 I8.2343
G03 Y16.8946 X10.2343 J-8.2343 I-2.1054
G03 Y10.7657 X-0.1054 J2.1054 I-8.2343
G01 Y10.8632 X-0.0836
G01 Z2.0000 F100
G01 Y10.7657 X-0.1054 F307
G03 Y21.1054 X-6.2343 J8.2343 I2.1054
G03 Y27.2343 X4.1054 J-2.1054 I8.2343
G03 Y16.8946 X10.2343 J-8.2343 I-2.1054
G03 Y10.7657 X-0.1054 J2.1054 I-8.2343
G01 Y10.8632 X-0.0836
G01 Z2.2500 F100
G01 Y10.7657 X-0.1054 F307
G03 Y21.1054 X-6.2343 J8.2343 I2.1054
G03 Y27.2343 X4.1054 J-2.1054 I8.2343
G03 Y16.8946 X10.2343 J-8.2343 I-2.1054
G03 Y10.7657 X-0.1054 J2.1054 I-8.2343
G01 Y10.8632 X-0.0836
G01 Z2.5000 F100
G01 Y10.7657 X-0.1054 F307
G03 Y21.1054 X-6.2343 J8.2343 I2.1054
G03 Y27.2343 X4.1054 J-2.1054 I8.2343
G03 Y16.8946 X10.2343 J-8.2343 I-2.1054
G03 Y10.7657 X-0.1054 J2.1054 I-8.2343
G01 Y10.8632 X-0.0836
G01 Z2.7500 F100
G01 Y10.7657 X-0.1054 F307
G03 Y21.1054 X-6.2343 J8.2343 I2.1054
G03 Y27.2343 X4.1054 J-2.1054 I8.2343
G03 Y16.8946 X10.2343 J-8.2343 I-2.1054
G03 Y10.7657 X-0.1054 J2.1054 I-8.2343
G01 Y10.8632 X-0.0836
G01 Z3.0000 F100
G01 Y10.7657 X-0.1054 F307
G03 Y21.1054 X-6.2343 J8.2343 I2.1054
G03 Y27.2343 X4.1054 J-2.1054 I8.2343
G03 Y16.8946 X10.2343 J-8.2343 I-2.1054
G03 Y10.7657 X-0.1054 J2.1054 I-8.2343
G01 Y10.8632 X-0.0836
G01 Z3.2500 F100
G01 Y10.7657 X-0.1054 F307
G03 Y21.1054 X-6.2343 J8.2343 I2.1054
G03 Y27.2343 X4.1054 J-2.1054 I8.2343
G03 Y16.8946 X10.2343 J-8.2343 I-2.1054
G03 Y10.7657 X-0.1054 J2.1054 I-8.2343
G01 Y10.8632 X-0.0836
G01 Z3.5000 F100
G01 Y10.7657 X-0.1054 F307
G03 Y21.1054 X-6.2343 J8.2343 I2.1054
G03 Y27.2343 X4.1054 J-2.1054 I8.2343
G03 Y16.8946 X10.2343 J-8.2343 I-2.1054
G03 Y10.7657 X-0.1054 J2.1054 I-8.2343
G01 Y10.8632 X-0.0836
G00 Z-25.0000

G00 Y0.0000 X0.0000

M05
M30
%

