%
( Spoil Board of at least 2mm is required )
( Zero is the XY centre of the spool, with Z at 18mm above the spoil board )
( Facing assumes maximum stock height of 18mm )

(Project 2-Spool)
(Created by Estlcam version 10 build 10.012)
(Machining time about 00:10:46 hours)

(Required tools:)
(HSS 2-Flute Endmill, 3.175mm)
(HSS Twist Drill, 4.5mm (R))
(HSS Twist Drill, 4.5mm (F))
(Carbide 2-Flute Endmill, 1mm)

G90
M03 S16000

G00 Z-20.0000


(No. 1: Remove Excess Stock)
G00 X-6.2410 Y-12.8588
G00 Z-0.5000
G01 Z2.0000 F300 S16000
G01 X6.2413 F1301
G01 X10.2081 Y-10.0013
G01 X-10.2080
G01 X-12.3770 Y-7.1438
G01 X12.3770
G01 X13.6368 Y-4.2863
G01 X-13.6367
G01 X-14.2228 Y-1.4288
G01 X14.2227
G01 X14.2228 Y1.4288
G01 X-14.2227
G01 X-13.6368 Y4.2863
G01 X13.6367
G01 X12.3770 Y7.1438
G01 X-12.3770
G01 X-10.2081 Y10.0013
G01 X10.2080
G01 X6.2410 Y12.8588
G01 X-6.2413
G00 Z-20.0000
G00 Z-0.5000
G01 Z2.0000 F300
G01 X-6.2903 Y12.9655 F1301
G02 X12.9667 Y6.2898 I6.2906 J-12.9664
G02 X6.2910 Y-12.9672 I-12.9664 J-6.2906
G02 X-12.9660 Y-6.2915 I-6.2906 J12.9664
G02 X-6.2903 Y12.9655 I12.9664 J6.2906
G01 X-6.2413 Y12.8588
G00 Z-20.0000
G00 X-6.2410 Y-12.8588
G00 Z1.5000
G01 Z4.0000 F300
G01 X6.2413 F1301
G01 X10.2081 Y-10.0013
G01 X-10.2080
G01 X-12.3770 Y-7.1438
G01 X12.3770
G01 X13.6368 Y-4.2863
G01 X-13.6367
G01 X-14.2228 Y-1.4288
G01 X14.2227
G01 X14.2228 Y1.4288
G01 X-14.2227
G01 X-13.6368 Y4.2863
G01 X13.6367
G01 X12.3770 Y7.1438
G01 X-12.3770
G01 X-10.2081 Y10.0013
G01 X10.2080
G01 X6.2410 Y12.8588
G01 X-6.2413
G00 Z-20.0000
G00 Z1.5000
G01 Z4.0000 F300
G01 X-6.2903 Y12.9655 F1301
G02 X12.9667 Y6.2898 I6.2906 J-12.9664
G02 X6.2910 Y-12.9672 I-12.9664 J-6.2906
G02 X-12.9660 Y-6.2915 I-6.2906 J12.9664
G02 X-6.2903 Y12.9655 I12.9664 J6.2906
G01 X-6.2413 Y12.8588
G00 Z-20.0000
G00 X-6.2410 Y-12.8588
G00 Z3.5000
G01 Z6.0000 F300
G01 X6.2413 F1301
G01 X10.2081 Y-10.0013
G01 X-10.2080
G01 X-12.3770 Y-7.1438
G01 X12.3770
G01 X13.6368 Y-4.2863
G01 X-13.6367
G01 X-14.2228 Y-1.4288
G01 X14.2227
G01 X14.2228 Y1.4288
G01 X-14.2227
G01 X-13.6368 Y4.2863
G01 X13.6367
G01 X12.3770 Y7.1438
G01 X-12.3770
G01 X-10.2081 Y10.0013
G01 X10.2080
G01 X6.2410 Y12.8588
G01 X-6.2413
G00 Z-20.0000
G00 Z3.5000
G01 Z6.0000 F300
G01 X-6.2903 Y12.9655 F1301
G02 X12.9667 Y6.2898 I6.2906 J-12.9664
G02 X6.2910 Y-12.9672 I-12.9664 J-6.2906
G02 X-12.9660 Y-6.2915 I-6.2906 J12.9664
G02 X-6.2903 Y12.9655 I12.9664 J6.2906
G01 X-6.2413 Y12.8588
G00 Z-20.0000


(No. 2: Face Around Stand-Off)
G00 X-1.0280 Y-12.8588 Z-20.0000
G00 Z5.5000
G01 Z8.0000 F300
G01 X1.0261 F1301
G01 Y-10.0013
G01 X8.1469
G01 X-8.1467
G01 X-10.7407 Y-7.1438
G01 X-3.8025
G01 X-6.8654 Y-4.2863
G01 X-12.1674
G01 X-12.8216 Y-1.4288
G01 X-7.9652
G01 Y1.4288
G01 X-12.8219
G01 X-12.1672 Y4.2863
G01 X-6.8660
G01 X-3.8025 Y7.1438
G01 X-10.7407
G01 X-8.1467 Y10.0013
G01 X8.1472
G01 X10.7409 Y7.1438
G01 X3.8025
G01 X6.8654 Y4.2863
G01 X12.1671
G01 X12.8216 Y1.4288
G01 X7.9652
G01 Y-1.4288
G01 X12.8219
G01 X12.1671 Y-4.2863
G01 X6.8660
G01 X3.8025 Y-7.1438
G01 X10.7409
G00 Z-20.0000
G00 X1.0261 Y10.0013
G00 Z5.5000
G01 Z8.0000 F300
G01 Y12.8588 F1301
G01 X-1.0280
G00 Z-20.0000
G00 X-0.5979 Y10.0013
G00 Z5.5000
G01 Z8.0000 F300
G01 Y7.7215 F1301
G03 X-7.7219 Y-0.5983 I0.5979 J-7.7219
G03 X0.5979 Y-7.7223 I7.7219 J0.5979
G03 X7.7219 Y0.5975 I-0.5979 J7.7219
G03 X-0.5979 Y7.7215 I-7.7219 J-0.5979
G01 Y10.0013
G00 Z-20.0000
G00 X-0.8432 Y12.8588
G00 Z5.5000
G01 Z8.0000 F300
G01 Y13.2231 F1301
G02 X13.2254 Y0.8415 I0.8435 J-13.2251
G02 X0.8439 Y-13.2272 I-13.2251 J-0.8435
G02 X-13.2248 Y-0.8456 I-0.8435 J13.2251
G02 X-0.8432 Y13.2231 I13.2251 J0.8435
G01 Y12.8588
G00 Z-20.0000
G00 X-1.0280 Y-12.8588
G00 Z7.5000
G01 Z9.0000 F300
G01 X1.0261 F1301
G01 Y-10.0013
G01 X8.1469
G01 X-8.1467
G01 X-10.7407 Y-7.1438
G01 X-3.8025
G01 X-6.8654 Y-4.2863
G01 X-12.1674
G01 X-12.8216 Y-1.4288
G01 X-7.9652
G01 Y1.4288
G01 X-12.8219
G01 X-12.1672 Y4.2863
G01 X-6.8660
G01 X-3.8025 Y7.1438
G01 X-10.7407
G01 X-8.1467 Y10.0013
G01 X8.1472
G01 X10.7409 Y7.1438
G01 X3.8025
G01 X6.8654 Y4.2863
G01 X12.1671
G01 X12.8216 Y1.4288
G01 X7.9652
G01 Y-1.4288
G01 X12.8219
G01 X12.1671 Y-4.2863
G01 X6.8660
G01 X3.8025 Y-7.1438
G01 X10.7409
G00 Z-20.0000
G00 X1.0261 Y10.0013
G00 Z7.5000
G01 Z9.0000 F300
G01 Y12.8588 F1301
G01 X-1.0280
G00 Z-20.0000
G00 X-0.5979 Y10.0013
G00 Z7.5000
G01 Z9.0000 F300
G01 Y7.7215 F1301
G03 X-7.7219 Y-0.5983 I0.5979 J-7.7219
G03 X0.5979 Y-7.7223 I7.7219 J0.5979
G03 X7.7219 Y0.5975 I-0.5979 J7.7219
G03 X-0.5979 Y7.7215 I-7.7219 J-0.5979
G01 Y10.0013
G00 Z-20.0000
G00 X-0.8432 Y12.8588
G00 Z7.5000
G01 Z9.0000 F300
G01 Y13.2231 F1301
G02 X13.2254 Y0.8415 I0.8435 J-13.2251
G02 X0.8439 Y-13.2272 I-13.2251 J-0.8435
G02 X-13.2248 Y-0.8456 I-0.8435 J13.2251
G02 X-0.8432 Y13.2231 I13.2251 J0.8435
G01 Y12.8588
G00 Z-20.0000


(No. 3: Face Around Stand-Off)
G00 X-9.6058 Y-9.1310 Z-20.0000
G00 Z5.5000
G01 Z8.0000 F300
G01 X-9.7208 Y-9.2406 F650
G02 X-9.2406 Y9.7208 I9.7208 J9.2406
G02 X9.7208 Y9.2406 I9.2406 J-9.7208
G02 X9.2406 Y-9.7208 I-9.7208 J-9.2406
G02 X-9.7208 Y-9.2406 I-9.2406 J9.7208
G01 X-9.6058 Y-9.1310
G01 Z9.0000 F300
G01 X-9.7208 Y-9.2406 F650
G02 X-9.2406 Y9.7208 I9.7208 J9.2406
G02 X9.7208 Y9.2406 I9.2406 J-9.7208
G02 X9.2406 Y-9.7208 I-9.7208 J-9.2406
G02 X-9.7208 Y-9.2406 I-9.2406 J9.7208
G01 X-9.6058 Y-9.1310


(No. 4: Face Around Stand-Off)
G00 X-9.6058 Y-9.1310 Z-20.0000
G00 X-5.5250 Y-5.4280
G00 Z5.5000
G01 Z8.0000 F300
G01 X-5.4084 Y-5.3202 F650
G03 X5.3202 Y-5.4084 I5.4084 J5.3202
G03 X5.4084 Y5.3202 I-5.3202 J5.4084
G03 X-5.3202 Y5.4084 I-5.4084 J-5.3202
G03 X-5.4084 Y-5.3202 I5.3202 J-5.4084
G01 X-5.5250 Y-5.4280
G01 Z9.0000 F300
G01 X-5.4084 Y-5.3202 F650
G03 X5.3202 Y-5.4084 I5.4084 J5.3202
G03 X5.4084 Y5.3202 I-5.3202 J5.4084
G03 X-5.3202 Y5.4084 I-5.4084 J-5.3202
G03 X-5.4084 Y-5.3202 I5.3202 J-5.4084
G01 X-5.5250 Y-5.4280


(No. 5: Remove Outline Material Tolerance)
G00 X-5.5250 Y-5.4280 Z-20.0000
G00 X-10.2260 Y-10.7577
G00 Z5.5000
G01 Z8.0000 F300
G02 X-10.7577 Y10.2260 I10.2260 J10.7577 F1301
G02 X10.2260 Y10.7577 I10.7577 J-10.2260
G02 X10.7577 Y-10.2260 I-10.2260 J-10.7577
G02 X-10.2260 Y-10.7577 I-10.7577 J10.2260
G01 Z9.0000 F300
G02 X-10.7577 Y10.2260 I10.2260 J10.7577 F1301
G02 X10.2260 Y10.7577 I10.7577 J-10.2260
G02 X10.7577 Y-10.2260 I-10.2260 J-10.7577
G02 X-10.2260 Y-10.7577 I-10.7577 J10.2260
G00 Z-20.0000


(No. 6: Drill Centre Hole 1)
M05
T2 M06 (Change tool: HSS Twist Drill, 4.5mm R)
M03
G00 X0.0000 Y0.0000 Z-20.0000
G00 Z5.5000
G01 Z8.0000 F300 S9000
G00 Z5.5000
G00 Z7.5000
G01 Z10.0000
G00 Z5.5000
G00 Z9.5000
G01 Z12.0000
G00 Z-20.0000


(No. 7: Remove Chips After Drill Centre Hole 1)
G00 X17.0000 Y3.0000 Z-20.0000
O100 sub
	G00 Z0
	G00 X100
	(MSG,Suck out the chips and then resume)
	M00
	G00 X0
O100 endsub
O100 call



(No. 8: Drill Centre Hole 2)
G00 X0.0000 Y0.0000 Z-20.0000
G00 Z11.5000
G01 Z14.0000 F300
G00 Z11.5000
G00 Z13.5000
G01 Z16.0000
G00 Z11.5000
G00 Z15.5000
G01 Z17.5000
G00 Z-20.0000


(No. 9: Drill Centre Hole 2 Finishing)
M05
T2 M06 (Change tool: HSS Twist Drill, 4.5mm F)
M03
G00 X0.0000 Y0.0000 Z17.0000
G01 Z18.0000 F30
G00 Z17.0000
G00 Z17.5000
G01 Z18.5000
G00 Z17.0000
G00 Z18.0000
G01 Z19.0000
G00 Z-20.0000


(No. 10: Remove Chips After Drill Centre Hole 2)
G00 X17.0000 Y1.0000 Z-20.0000
O100 call



(No. 11: Mill Centre Hole 1)
M05
T4 M06 (Change tool: Carbide 2-Flute Endmill, 1mm)
M03
G00 X1.4895 Y-1.8000 Z-20.0000
G00 Z5.5000
G01 Z6.5000 F300 S16000
G01 X-1.4897 F819
G01 X-1.8398 Y-0.9000
G01 X2.1557
G01 X2.3386 Y0.0000
G01 X-1.8395
G01 X-1.8392 Y0.9000
G01 X2.1559
G01 X1.4891 Y1.8000
G01 X-1.4893
G00 Z-20.0000
G00 Z5.5000
G01 Z6.5000 F300
G01 X-1.5620 Y1.8831 F819
G02 X0.9523 Y2.2565 I1.5632 J-1.8740
G02 X-1.0711 Y-2.2026 I-0.9523 J-2.2565
G02 X-1.9500 Y-1.4764 I1.0179 J2.1268
G01 Y1.4764
G02 X-1.5620 Y1.8831 I1.6615 J-1.1966
G01 X-1.4893 Y1.8000
G00 Z-20.0000
G00 X-1.4897 Y-1.8000
G00 Z6.0000
G01 Z7.0000 F300
G01 X1.4895 F819
G01 X2.1557 Y-0.9000
G01 X-1.8398
G01 X-1.8395 Y0.0000
G01 X2.3386
G01 X2.1559 Y0.9000
G01 X-1.8392
G01 X-1.4893 Y1.8000
G01 X1.4891
G00 Z-20.0000
G00 Z6.0000
G01 Z7.0000 F300
G01 X1.5573 Y1.8868 F819
G01 X1.6128 Y1.8432
G01 X1.7996 Y1.6614
G02 X-1.9500 Y-1.4764 I-1.7972 J-1.6616
G01 Y1.4764
G02 X1.5573 Y1.8868 I1.9493 J-1.4665
G01 X1.4891 Y1.8000
G00 Z-20.0000
G00 X1.4895 Y-1.8000
G00 Z6.5000
G01 Z7.5000 F300
G01 X-1.4897 F819
G01 X-1.8398 Y-0.9000
G01 X2.1557
G01 X2.3386 Y0.0000
G01 X-1.8395
G01 X-1.8392 Y0.9000
G01 X2.1559
G01 X1.4891 Y1.8000
G01 X-1.4893
G00 Z-20.0000
G00 Z6.5000
G01 Z7.5000 F300
G01 X-1.5620 Y1.8831 F819
G02 X0.9523 Y2.2565 I1.5632 J-1.8740
G02 X-1.0711 Y-2.2026 I-0.9523 J-2.2565
G02 X-1.9500 Y-1.4764 I1.0179 J2.1268
G01 Y1.4764
G02 X-1.5620 Y1.8831 I1.6615 J-1.1966
G01 X-1.4893 Y1.8000
G00 Z-20.0000
G00 X-1.4897 Y-1.8000
G00 Z7.0000
G01 Z8.0000 F300
G01 X1.4895 F819
G01 X2.1557 Y-0.9000
G01 X-1.8398
G01 X-1.8395 Y0.0000
G01 X2.3386
G01 X2.1559 Y0.9000
G01 X-1.8392
G01 X-1.4893 Y1.8000
G01 X1.4891
G00 Z-20.0000
G00 Z7.0000
G01 Z8.0000 F300
G01 X1.5573 Y1.8868 F819
G01 X1.6128 Y1.8432
G01 X1.7996 Y1.6614
G02 X-1.9500 Y-1.4764 I-1.7972 J-1.6616
G01 Y1.4764
G02 X1.5573 Y1.8868 I1.9493 J-1.4665
G01 X1.4891 Y1.8000
G00 Z-20.0000


(No. 12: Mill Centre Hole 1)
G00 X-1.5125 Y-1.9264 Z-20.0000
G00 Z5.5000
G01 Z6.5000 F300
G01 X-1.5434 Y-1.9658 F410
G02 X-2.0000 Y-1.4929 I1.2392 J1.6533
G01 Y1.4929
G02 X0.9717 Y2.3026 I2.0007 J-1.4845
G02 X-1.0930 Y-2.2476 I-0.9717 J-2.3026
G01 X-1.3257 Y-2.1187
G01 X-1.5434 Y-1.9658
G01 X-1.5125 Y-1.9264
G01 Z7.0000 F300
G01 X-1.5434 Y-1.9658 F410
G02 X-2.0000 Y-1.4929 I1.2392 J1.6533
G01 Y1.4929
G02 X0.9717 Y2.3026 I2.0007 J-1.4845
G02 X-1.0930 Y-2.2476 I-0.9717 J-2.3026
G01 X-1.3257 Y-2.1187
G01 X-1.5434 Y-1.9658
G01 X-1.5125 Y-1.9264
G01 Z7.5000 F300
G01 X-1.5434 Y-1.9658 F410
G02 X-2.0000 Y-1.4929 I1.2392 J1.6533
G01 Y1.4929
G02 X0.9717 Y2.3026 I2.0007 J-1.4845
G02 X-1.0930 Y-2.2476 I-0.9717 J-2.3026
G01 X-1.3257 Y-2.1187
G01 X-1.5434 Y-1.9658
G01 X-1.5125 Y-1.9264
G01 Z8.0000 F300
G01 X-1.5434 Y-1.9658 F410
G02 X-2.0000 Y-1.4929 I1.2392 J1.6533
G01 Y1.4929
G02 X0.9717 Y2.3026 I2.0007 J-1.4845
G02 X-1.0930 Y-2.2476 I-0.9717 J-2.3026
G01 X-1.3257 Y-2.1187
G01 X-1.5434 Y-1.9658
G01 X-1.5125 Y-1.9264


(No. 13: Remove Chips After Mill Centre Hole 1)
G00 X-1.5125 Y-1.9264 Z-20.0000
G00 X17.0000 Y-1.0000
O100 call



(No. 14: Mill Centre Hole 2)
G00 X1.4895 Y-1.8000 Z-20.0000
G00 Z7.5000
G01 Z8.5000 F300
G01 X-1.4897 F819
G01 X-1.8398 Y-0.9000
G01 X2.1557
G01 X2.3386 Y0.0000
G01 X-1.8395
G01 X-1.8392 Y0.9000
G01 X2.1559
G01 X1.4891 Y1.8000
G01 X-1.4893
G00 Z-20.0000
G00 Z7.5000
G01 Z8.5000 F300
G01 X-1.5620 Y1.8831 F819
G02 X0.9523 Y2.2565 I1.5632 J-1.8740
G02 X-1.0711 Y-2.2026 I-0.9523 J-2.2565
G02 X-1.9500 Y-1.4764 I1.0179 J2.1268
G01 Y1.4764
G02 X-1.5620 Y1.8831 I1.6615 J-1.1966
G01 X-1.4893 Y1.8000
G00 Z-20.0000
G00 X-1.4897 Y-1.8000
G00 Z8.0000
G01 Z9.0000 F300
G01 X1.4895 F819
G01 X2.1557 Y-0.9000
G01 X-1.8398
G01 X-1.8395 Y0.0000
G01 X2.3386
G01 X2.1559 Y0.9000
G01 X-1.8392
G01 X-1.4893 Y1.8000
G01 X1.4891
G00 Z-20.0000
G00 Z8.0000
G01 Z9.0000 F300
G01 X1.5573 Y1.8868 F819
G01 X1.6128 Y1.8432
G01 X1.7996 Y1.6614
G02 X-1.9500 Y-1.4764 I-1.7972 J-1.6616
G01 Y1.4764
G02 X1.5573 Y1.8868 I1.9493 J-1.4665
G01 X1.4891 Y1.8000
G00 Z-20.0000
G00 X1.4895 Y-1.8000
G00 Z8.5000
G01 Z9.5000 F300
G01 X-1.4897 F819
G01 X-1.8398 Y-0.9000
G01 X2.1557
G01 X2.3386 Y0.0000
G01 X-1.8395
G01 X-1.8392 Y0.9000
G01 X2.1559
G01 X1.4891 Y1.8000
G01 X-1.4893
G00 Z-20.0000
G00 Z8.5000
G01 Z9.5000 F300
G01 X-1.5620 Y1.8831 F819
G02 X0.9523 Y2.2565 I1.5632 J-1.8740
G02 X-1.0711 Y-2.2026 I-0.9523 J-2.2565
G02 X-1.9500 Y-1.4764 I1.0179 J2.1268
G01 Y1.4764
G02 X-1.5620 Y1.8831 I1.6615 J-1.1966
G01 X-1.4893 Y1.8000
G00 Z-20.0000
G00 X-1.4897 Y-1.8000
G00 Z9.0000
G01 Z10.0000 F300
G01 X1.4895 F819
G01 X2.1557 Y-0.9000
G01 X-1.8398
G01 X-1.8395 Y0.0000
G01 X2.3386
G01 X2.1559 Y0.9000
G01 X-1.8392
G01 X-1.4893 Y1.8000
G01 X1.4891
G00 Z-20.0000
G00 Z9.0000
G01 Z10.0000 F300
G01 X1.5573 Y1.8868 F819
G01 X1.6128 Y1.8432
G01 X1.7996 Y1.6614
G02 X-1.9500 Y-1.4764 I-1.7972 J-1.6616
G01 Y1.4764
G02 X1.5573 Y1.8868 I1.9493 J-1.4665
G01 X1.4891 Y1.8000
G00 Z-20.0000


(No. 15: Mill Centre Hole 2)
G00 X-1.5125 Y-1.9264 Z-20.0000
G00 Z7.5000
G01 Z8.5000 F300
G01 X-1.5434 Y-1.9658 F410
G02 X-2.0000 Y-1.4929 I1.2392 J1.6533
G01 Y1.4929
G02 X0.9717 Y2.3026 I2.0007 J-1.4845
G02 X-1.0930 Y-2.2476 I-0.9717 J-2.3026
G01 X-1.3257 Y-2.1187
G01 X-1.5434 Y-1.9658
G01 X-1.5125 Y-1.9264
G01 Z9.0000 F300
G01 X-1.5434 Y-1.9658 F410
G02 X-2.0000 Y-1.4929 I1.2392 J1.6533
G01 Y1.4929
G02 X0.9717 Y2.3026 I2.0007 J-1.4845
G02 X-1.0930 Y-2.2476 I-0.9717 J-2.3026
G01 X-1.3257 Y-2.1187
G01 X-1.5434 Y-1.9658
G01 X-1.5125 Y-1.9264
G01 Z9.5000 F300
G01 X-1.5434 Y-1.9658 F410
G02 X-2.0000 Y-1.4929 I1.2392 J1.6533
G01 Y1.4929
G02 X0.9717 Y2.3026 I2.0007 J-1.4845
G02 X-1.0930 Y-2.2476 I-0.9717 J-2.3026
G01 X-1.3257 Y-2.1187
G01 X-1.5434 Y-1.9658
G01 X-1.5125 Y-1.9264
G01 Z10.0000 F300
G01 X-1.5434 Y-1.9658 F410
G02 X-2.0000 Y-1.4929 I1.2392 J1.6533
G01 Y1.4929
G02 X0.9717 Y2.3026 I2.0007 J-1.4845
G02 X-1.0930 Y-2.2476 I-0.9717 J-2.3026
G01 X-1.3257 Y-2.1187
G01 X-1.5434 Y-1.9658
G01 X-1.5125 Y-1.9264


(No. 16: Remove Chips After Mill Centre Hole 2)
G00 X-1.5125 Y-1.9264 Z-20.0000
G00 X17.0000 Y-3.0000
O100 call



(No. 17: Mill Centre Hole 3)
G00 X1.4895 Y-1.8000 Z-20.0000
G00 Z9.5000
G01 Z10.5000 F300
G01 X-1.4897 F819
G01 X-1.8398 Y-0.9000
G01 X2.1557
G01 X2.3386 Y0.0000
G01 X-1.8395
G01 X-1.8392 Y0.9000
G01 X2.1559
G01 X1.4891 Y1.8000
G01 X-1.4893
G00 Z-20.0000
G00 Z9.5000
G01 Z10.5000 F300
G01 X-1.5620 Y1.8831 F819
G02 X0.9523 Y2.2565 I1.5632 J-1.8740
G02 X-1.0711 Y-2.2026 I-0.9523 J-2.2565
G02 X-1.9500 Y-1.4764 I1.0179 J2.1268
G01 Y1.4764
G02 X-1.5620 Y1.8831 I1.6615 J-1.1966
G01 X-1.4893 Y1.8000
G00 Z-20.0000
G00 X-1.4897 Y-1.8000
G00 Z10.0000
G01 Z11.0000 F300
G01 X1.4895 F819
G01 X2.1557 Y-0.9000
G01 X-1.8398
G01 X-1.8395 Y0.0000
G01 X2.3386
G01 X2.1559 Y0.9000
G01 X-1.8392
G01 X-1.4893 Y1.8000
G01 X1.4891
G00 Z-20.0000
G00 Z10.0000
G01 Z11.0000 F300
G01 X1.5573 Y1.8868 F819
G01 X1.6128 Y1.8432
G01 X1.7996 Y1.6614
G02 X-1.9500 Y-1.4764 I-1.7972 J-1.6616
G01 Y1.4764
G02 X1.5573 Y1.8868 I1.9493 J-1.4665
G01 X1.4891 Y1.8000
G00 Z-20.0000
G00 X1.4895 Y-1.8000
G00 Z10.5000
G01 Z11.5000 F300
G01 X-1.4897 F819
G01 X-1.8398 Y-0.9000
G01 X2.1557
G01 X2.3386 Y0.0000
G01 X-1.8395
G01 X-1.8392 Y0.9000
G01 X2.1559
G01 X1.4891 Y1.8000
G01 X-1.4893
G00 Z-20.0000
G00 Z10.5000
G01 Z11.5000 F300
G01 X-1.5620 Y1.8831 F819
G02 X0.9523 Y2.2565 I1.5632 J-1.8740
G02 X-1.0711 Y-2.2026 I-0.9523 J-2.2565
G02 X-1.9500 Y-1.4764 I1.0179 J2.1268
G01 Y1.4764
G02 X-1.5620 Y1.8831 I1.6615 J-1.1966
G01 X-1.4893 Y1.8000
G00 Z-20.0000
G00 X-1.4897 Y-1.8000
G00 Z11.0000
G01 Z12.0000 F300
G01 X1.4895 F819
G01 X2.1557 Y-0.9000
G01 X-1.8398
G01 X-1.8395 Y0.0000
G01 X2.3386
G01 X2.1559 Y0.9000
G01 X-1.8392
G01 X-1.4893 Y1.8000
G01 X1.4891
G00 Z-20.0000
G00 Z11.0000
G01 Z12.0000 F300
G01 X1.5573 Y1.8868 F819
G01 X1.6128 Y1.8432
G01 X1.7996 Y1.6614
G02 X-1.9500 Y-1.4764 I-1.7972 J-1.6616
G01 Y1.4764
G02 X1.5573 Y1.8868 I1.9493 J-1.4665
G01 X1.4891 Y1.8000
G00 Z-20.0000
G00 X1.4895 Y-1.8000
G00 Z11.5000
G01 Z12.5000 F300
G01 X-1.4897 F819
G01 X-1.8398 Y-0.9000
G01 X2.1557
G01 X2.3386 Y0.0000
G01 X-1.8395
G01 X-1.8392 Y0.9000
G01 X2.1559
G01 X1.4891 Y1.8000
G01 X-1.4893
G00 Z-20.0000
G00 Z11.5000
G01 Z12.5000 F300
G01 X-1.5620 Y1.8831 F819
G02 X0.9523 Y2.2565 I1.5632 J-1.8740
G02 X-1.0711 Y-2.2026 I-0.9523 J-2.2565
G02 X-1.9500 Y-1.4764 I1.0179 J2.1268
G01 Y1.4764
G02 X-1.5620 Y1.8831 I1.6615 J-1.1966
G01 X-1.4893 Y1.8000
G00 Z-20.0000


(No. 18: Mill Centre Hole 3)
G00 X-1.5125 Y-1.9264 Z-20.0000
G00 Z9.5000
G01 Z10.5000 F300
G01 X-1.5434 Y-1.9658 F410
G02 X-2.0000 Y-1.4929 I1.2392 J1.6533
G01 Y1.4929
G02 X0.9717 Y2.3026 I2.0007 J-1.4845
G02 X-1.0930 Y-2.2476 I-0.9717 J-2.3026
G01 X-1.3257 Y-2.1187
G01 X-1.5434 Y-1.9658
G01 X-1.5125 Y-1.9264
G01 Z11.0000 F300
G01 X-1.5434 Y-1.9658 F410
G02 X-2.0000 Y-1.4929 I1.2392 J1.6533
G01 Y1.4929
G02 X0.9717 Y2.3026 I2.0007 J-1.4845
G02 X-1.0930 Y-2.2476 I-0.9717 J-2.3026
G01 X-1.3257 Y-2.1187
G01 X-1.5434 Y-1.9658
G01 X-1.5125 Y-1.9264
G01 Z11.5000 F300
G01 X-1.5434 Y-1.9658 F410
G02 X-2.0000 Y-1.4929 I1.2392 J1.6533
G01 Y1.4929
G02 X0.9717 Y2.3026 I2.0007 J-1.4845
G02 X-1.0930 Y-2.2476 I-0.9717 J-2.3026
G01 X-1.3257 Y-2.1187
G01 X-1.5434 Y-1.9658
G01 X-1.5125 Y-1.9264
G01 Z12.0000 F300
G01 X-1.5434 Y-1.9658 F410
G02 X-2.0000 Y-1.4929 I1.2392 J1.6533
G01 Y1.4929
G02 X0.9717 Y2.3026 I2.0007 J-1.4845
G02 X-1.0930 Y-2.2476 I-0.9717 J-2.3026
G01 X-1.3257 Y-2.1187
G01 X-1.5434 Y-1.9658
G01 X-1.5125 Y-1.9264
G01 Z12.5000 F300
G01 X-1.5434 Y-1.9658 F410
G02 X-2.0000 Y-1.4929 I1.2392 J1.6533
G01 Y1.4929
G02 X0.9717 Y2.3026 I2.0007 J-1.4845
G02 X-1.0930 Y-2.2476 I-0.9717 J-2.3026
G01 X-1.3257 Y-2.1187
G01 X-1.5434 Y-1.9658
G01 X-1.5125 Y-1.9264
G00 Z-20.0000
G00 X0.0000 Y0.0000

M05
M30
%

