%
( Mount the spool on the fixture created by 3-SpoolFixture.nc )
( Zero is the XY centre of the spool, with Z on top of the spool )

(Project 3-SpoolFixture)
(Created by Estlcam version 10 build 10.012)
(Machining time about 00:00:55 hours)

(Required tools:)
(Carbide 4-Flute Endmill, 2mm)

G90
M03 S9000

G00 Z-20.0000


(No. 1: Hole 1)
G00 X-1.6570 Y-4.5000
G00 Z-0.5000
G01 Z1.0000 F300 S9000
G01 X1.6570 F2304
G00 Z-20.0000
G00 X-3.2154 Y-2.7000
G00 Z-0.5000
G01 Z1.0000 F300
G01 X-3.9633 F2304
G01 X-3.7000 Y-0.9000
G01 X-4.7103
G01 Y0.9000
G01 X-3.7000
G01 X-3.9633 Y2.7000
G01 X-3.2152
G00 Z-20.0000
G00 X3.2117 Y-2.7000
G00 Z-0.5000
G01 Z1.0000 F300
G01 X3.9628 F2304
G00 Z-20.0000
G00 X4.1009 Y-0.9000
G00 Z-0.5000
G01 Z1.0000 F300
G01 X4.7103 F2304
G01 Y0.9000
G01 X4.1010
G00 Z-20.0000
G00 X3.9633 Y2.7000
G00 Z-0.5000
G01 Z1.0000 F300
G01 X3.2117 F2304
G00 Z-20.0000
G00 X1.6570 Y4.5000
G00 Z-0.5000
G01 Z1.0000 F300
G01 X-1.6570 F2304
G00 Z-20.0000
G00 X-1.3892
G00 Z-0.5000
G01 Z1.0000 F300
G01 Y3.7500 F2304
G03 X-3.4052 Y2.0833 I1.3567 J-3.6936
G03 X-3.4992 Y1.6972 I0.9052 J-0.4250
G01 X-3.5000 Y1.6383
G01 Y-1.6583
G03 X-3.4211 Y-2.0477 I1.0000 J0.0000
G03 X-1.3127 Y-3.7776 I3.3773 J1.9664
G03 X1.0839 Y3.8485 I1.3130 J3.7770
G03 X-1.3892 Y3.7500 I-1.0857 J-3.8367
G01 Y4.5000
G00 Z-20.0000
G00 X-1.4672
G00 Z-0.5000
G01 Z1.0000 F300
G01 Y4.7764 F2304
G01 X-1.1664 Y4.8612
G01 X-0.7813 Y4.9378
G02 X0.3915 Y-4.9838 I0.7813 J-4.9378
G02 X-4.9838 Y-0.3915 I-0.3915 J4.9838
G01 X-4.9992 Y0.0007
G02 X-1.5442 Y4.7547 I4.9992 J-0.0007
G01 X-1.4672 Y4.7764
G01 Y4.5000
G00 Z-20.0000
G00 X-1.6570 Y-4.5000
G00 Z0.5000
G01 Z2.0000 F300
G01 X1.6570 F2304
G00 Z-20.0000
G00 X-3.2154 Y-2.7000
G00 Z0.5000
G01 Z2.0000 F300
G01 X-3.9633 F2304
G01 X-3.7000 Y-0.9000
G01 X-4.7103
G01 Y0.9000
G01 X-3.7000
G01 X-3.9633 Y2.7000
G01 X-3.2152
G00 Z-20.0000
G00 X3.2117 Y-2.7000
G00 Z0.5000
G01 Z2.0000 F300
G01 X3.9628 F2304
G00 Z-20.0000
G00 X4.1009 Y-0.9000
G00 Z0.5000
G01 Z2.0000 F300
G01 X4.7103 F2304
G01 Y0.9000
G01 X4.1010
G00 Z-20.0000
G00 X3.9633 Y2.7000
G00 Z0.5000
G01 Z2.0000 F300
G01 X3.2117 F2304
G00 Z-20.0000
G00 X1.6570 Y4.5000
G00 Z0.5000
G01 Z2.0000 F300
G01 X-1.6570 F2304
G00 Z-20.0000
G00 X-1.3892
G00 Z0.5000
G01 Z2.0000 F300
G01 Y3.7500 F2304
G03 X-3.4052 Y2.0833 I1.3567 J-3.6936
G03 X-3.4992 Y1.6972 I0.9052 J-0.4250
G01 X-3.5000 Y1.6383
G01 Y-1.6583
G03 X-3.4211 Y-2.0477 I1.0000 J0.0000
G03 X-1.3127 Y-3.7776 I3.3773 J1.9664
G03 X1.0839 Y3.8485 I1.3130 J3.7770
G03 X-1.3892 Y3.7500 I-1.0857 J-3.8367
G01 Y4.5000
G00 Z-20.0000
G00 X-1.4672
G00 Z0.5000
G01 Z2.0000 F300
G01 Y4.7764 F2304
G01 X-1.1664 Y4.8612
G01 X-0.7813 Y4.9378
G02 X0.3915 Y-4.9838 I0.7813 J-4.9378
G02 X-4.9838 Y-0.3915 I-0.3915 J4.9838
G01 X-4.9992 Y0.0007
G02 X-1.5442 Y4.7547 I4.9992 J-0.0007
G01 X-1.4672 Y4.7764
G01 Y4.5000
G00 Z-20.0000
G00 X-1.6570 Y-4.5000
G00 Z1.5000
G01 Z3.0000 F300
G01 X1.6570 F2304
G00 Z-20.0000
G00 X-3.2154 Y-2.7000
G00 Z1.5000
G01 Z3.0000 F300
G01 X-3.9633 F2304
G01 X-3.7000 Y-0.9000
G01 X-4.7103
G01 Y0.9000
G01 X-3.7000
G01 X-3.9633 Y2.7000
G01 X-3.2152
G00 Z-20.0000
G00 X3.2117 Y-2.7000
G00 Z1.5000
G01 Z3.0000 F300
G01 X3.9628 F2304
G00 Z-20.0000
G00 X4.1009 Y-0.9000
G00 Z1.5000
G01 Z3.0000 F300
G01 X4.7103 F2304
G01 Y0.9000
G01 X4.1010
G00 Z-20.0000
G00 X3.9633 Y2.7000
G00 Z1.5000
G01 Z3.0000 F300
G01 X3.2117 F2304
G00 Z-20.0000
G00 X1.6570 Y4.5000
G00 Z1.5000
G01 Z3.0000 F300
G01 X-1.6570 F2304
G00 Z-20.0000
G00 X-1.3892
G00 Z1.5000
G01 Z3.0000 F300
G01 Y3.7500 F2304
G03 X-3.4052 Y2.0833 I1.3567 J-3.6936
G03 X-3.4992 Y1.6972 I0.9052 J-0.4250
G01 X-3.5000 Y1.6383
G01 Y-1.6583
G03 X-3.4211 Y-2.0477 I1.0000 J0.0000
G03 X-1.3127 Y-3.7776 I3.3773 J1.9664
G03 X1.0839 Y3.8485 I1.3130 J3.7770
G03 X-1.3892 Y3.7500 I-1.0857 J-3.8367
G01 Y4.5000
G00 Z-20.0000
G00 X-1.4672
G00 Z1.5000
G01 Z3.0000 F300
G01 Y4.7764 F2304
G01 X-1.1664 Y4.8612
G01 X-0.7813 Y4.9378
G02 X0.3915 Y-4.9838 I0.7813 J-4.9378
G02 X-4.9838 Y-0.3915 I-0.3915 J4.9838
G01 X-4.9992 Y0.0007
G02 X-1.5442 Y4.7547 I4.9992 J-0.0007
G01 X-1.4672 Y4.7764
G01 Y4.5000
G00 Z-20.0000
G00 X-1.6570 Y-4.5000
G00 Z2.5000
G01 Z4.0000 F300
G01 X1.6570 F2304
G00 Z-20.0000
G00 X-3.2154 Y-2.7000
G00 Z2.5000
G01 Z4.0000 F300
G01 X-3.9633 F2304
G01 X-3.7000 Y-0.9000
G01 X-4.7103
G01 Y0.9000
G01 X-3.7000
G01 X-3.9633 Y2.7000
G01 X-3.2152
G00 Z-20.0000
G00 X3.2117 Y-2.7000
G00 Z2.5000
G01 Z4.0000 F300
G01 X3.9628 F2304
G00 Z-20.0000
G00 X4.1009 Y-0.9000
G00 Z2.5000
G01 Z4.0000 F300
G01 X4.7103 F2304
G01 Y0.9000
G01 X4.1010
G00 Z-20.0000
G00 X3.9633 Y2.7000
G00 Z2.5000
G01 Z4.0000 F300
G01 X3.2117 F2304
G00 Z-20.0000
G00 X1.6570 Y4.5000
G00 Z2.5000
G01 Z4.0000 F300
G01 X-1.6570 F2304
G00 Z-20.0000
G00 X-1.3892
G00 Z2.5000
G01 Z4.0000 F300
G01 Y3.7500 F2304
G03 X-3.4052 Y2.0833 I1.3567 J-3.6936
G03 X-3.4992 Y1.6972 I0.9052 J-0.4250
G01 X-3.5000 Y1.6383
G01 Y-1.6583
G03 X-3.4211 Y-2.0477 I1.0000 J0.0000
G03 X-1.3127 Y-3.7776 I3.3773 J1.9664
G03 X1.0839 Y3.8485 I1.3130 J3.7770
G03 X-1.3892 Y3.7500 I-1.0857 J-3.8367
G01 Y4.5000
G00 Z-20.0000
G00 X-1.4672
G00 Z2.5000
G01 Z4.0000 F300
G01 Y4.7764 F2304
G01 X-1.1664 Y4.8612
G01 X-0.7813 Y4.9378
G02 X0.3915 Y-4.9838 I0.7813 J-4.9378
G02 X-4.9838 Y-0.3915 I-0.3915 J4.9838
G01 X-4.9992 Y0.0007
G02 X-1.5442 Y4.7547 I4.9992 J-0.0007
G01 X-1.4672 Y4.7764
G01 Y4.5000
G00 Z-20.0000
G00 X0.0000 Y0.0000

M05
M30
%

