%
( Mount the spool on the fixture created by 3-SpoolFixture.nc )
( Zero is the XY centre of the spool, with Z on top of the spool )

(Project 3-Spool)
(Created by Estlcam version 10 build 10.012)
(Machining time about 00:04:15 hours)

(Required tools:)
(Carbide 2-Flute Endmill, 1mm)
(HSS Twist Drill, 0.5mm (R))
(HSS Twist Drill, 0.5mm (F))

G90
M03 S16000

G00 Z-20.0000


(No. 1: Mill Centre Hole)
G00 X-1.4891 Y-1.8000
G00 Z-0.5000
G01 Z0.5000 F300 S16000
G01 X1.4893 F819
G01 X1.8392 Y-0.9000
G01 X-2.1559
G01 X-2.3386 Y0.0000
G01 X1.8395
G01 X1.8398 Y0.9000
G01 X-2.1557
G01 X-1.4895 Y1.8000
G01 X1.4897
G00 Z-20.0000
G00 Z-0.5000
G01 Z0.5000 F300
G01 X1.5623 Y1.8829 F819
G02 X1.9500 Y1.4764 I-1.1329 J-1.4688
G01 Y-1.4764
G02 X-2.4353 Y-0.2603 I-1.9524 J1.4743
G01 X-2.4492 Y0.0000
G01 X-2.4353 Y0.2603
G02 X1.5623 Y1.8829 I2.4329 J-0.2583
G01 X1.4897 Y1.8000
G00 Z-20.0000
G00 X1.4893 Y-1.8000
G00 Z0.0000
G01 Z1.0000 F300
G01 X-1.4891 F819
G01 X-2.1559 Y-0.9000
G01 X1.8392
G01 X1.8395 Y0.0000
G01 X-2.3386
G01 X-2.1557 Y0.9000
G01 X1.8398
G01 X1.4897 Y1.8000
G01 X-1.4895
G00 Z-20.0000
G00 Z0.0000
G01 Z1.0000 F300
G01 X-1.5576 Y1.8866 F819
G02 X1.9500 Y1.4764 I1.5583 J-1.8767
G01 Y-1.4764
G02 X-2.4353 Y-0.2603 I-1.9524 J1.4743
G01 X-2.4492 Y0.0000
G01 X-2.4353 Y0.2603
G02 X-1.5576 Y1.8866 I2.4157 J-0.2538
G01 X-1.4895 Y1.8000
G00 Z-20.0000
G00 X-1.4891 Y-1.8000
G00 Z0.5000
G01 Z1.5000 F300
G01 X1.4893 F819
G01 X1.8392 Y-0.9000
G01 X-2.1559
G01 X-2.3386 Y0.0000
G01 X1.8395
G01 X1.8398 Y0.9000
G01 X-2.1557
G01 X-1.4895 Y1.8000
G01 X1.4897
G00 Z-20.0000
G00 Z0.5000
G01 Z1.5000 F300
G01 X1.5623 Y1.8829 F819
G02 X1.9500 Y1.4764 I-1.1329 J-1.4688
G01 Y-1.4764
G02 X-2.4353 Y-0.2603 I-1.9524 J1.4743
G01 X-2.4492 Y0.0000
G01 X-2.4353 Y0.2603
G02 X1.5623 Y1.8829 I2.4329 J-0.2583
G01 X1.4897 Y1.8000
G00 Z-20.0000
G00 X1.4893 Y-1.8000
G00 Z1.0000
G01 Z2.0000 F300
G01 X-1.4891 F819
G01 X-2.1559 Y-0.9000
G01 X1.8392
G01 X1.8395 Y0.0000
G01 X-2.3386
G01 X-2.1557 Y0.9000
G01 X1.8398
G01 X1.4897 Y1.8000
G01 X-1.4895
G00 Z-20.0000
G00 Z1.0000
G01 Z2.0000 F300
G01 X-1.5576 Y1.8866 F819
G02 X1.9500 Y1.4764 I1.5583 J-1.8767
G01 Y-1.4764
G02 X-2.4353 Y-0.2603 I-1.9524 J1.4743
G01 X-2.4492 Y0.0000
G01 X-2.4353 Y0.2603
G02 X-1.5576 Y1.8866 I2.4157 J-0.2538
G01 X-1.4895 Y1.8000
G00 Z-20.0000
G00 X-1.4891 Y-1.8000
G00 Z1.5000
G01 Z2.5000 F300
G01 X1.4893 F819
G01 X1.8392 Y-0.9000
G01 X-2.1559
G01 X-2.3386 Y0.0000
G01 X1.8395
G01 X1.8398 Y0.9000
G01 X-2.1557
G01 X-1.4895 Y1.8000
G01 X1.4897
G00 Z-20.0000
G00 Z1.5000
G01 Z2.5000 F300
G01 X1.5623 Y1.8829 F819
G02 X1.9500 Y1.4764 I-1.1329 J-1.4688
G01 Y-1.4764
G02 X-2.4353 Y-0.2603 I-1.9524 J1.4743
G01 X-2.4492 Y0.0000
G01 X-2.4353 Y0.2603
G02 X1.5623 Y1.8829 I2.4329 J-0.2583
G01 X1.4897 Y1.8000
G00 Z-20.0000
G00 X1.4893 Y-1.8000
G00 Z2.0000
G01 Z3.0000 F300
G01 X-1.4891 F819
G01 X-2.1559 Y-0.9000
G01 X1.8392
G01 X1.8395 Y0.0000
G01 X-2.3386
G01 X-2.1557 Y0.9000
G01 X1.8398
G01 X1.4897 Y1.8000
G01 X-1.4895
G00 Z-20.0000
G00 Z2.0000
G01 Z3.0000 F300
G01 X-1.5576 Y1.8866 F819
G02 X1.9500 Y1.4764 I1.5583 J-1.8767
G01 Y-1.4764
G02 X-2.4353 Y-0.2603 I-1.9524 J1.4743
G01 X-2.4492 Y0.0000
G01 X-2.4353 Y0.2603
G02 X-1.5576 Y1.8866 I2.4157 J-0.2538
G01 X-1.4895 Y1.8000
G00 Z-20.0000
G00 X-1.4891 Y-1.8000
G00 Z2.5000
G01 Z3.5000 F300
G01 X1.4893 F819
G01 X1.8392 Y-0.9000
G01 X-2.1559
G01 X-2.3386 Y0.0000
G01 X1.8395
G01 X1.8398 Y0.9000
G01 X-2.1557
G01 X-1.4895 Y1.8000
G01 X1.4897
G00 Z-20.0000
G00 Z2.5000
G01 Z3.5000 F300
G01 X1.5623 Y1.8829 F819
G02 X1.9500 Y1.4764 I-1.1329 J-1.4688
G01 Y-1.4764
G02 X-2.4353 Y-0.2603 I-1.9524 J1.4743
G01 X-2.4492 Y0.0000
G01 X-2.4353 Y0.2603
G02 X1.5623 Y1.8829 I2.4329 J-0.2583
G01 X1.4897 Y1.8000
G00 Z-20.0000
G00 X1.4893 Y-1.8000
G00 Z3.0000
G01 Z4.0000 F300
G01 X-1.4891 F819
G01 X-2.1559 Y-0.9000
G01 X1.8392
G01 X1.8395 Y0.0000
G01 X-2.3386
G01 X-2.1557 Y0.9000
G01 X1.8398
G01 X1.4897 Y1.8000
G01 X-1.4895
G00 Z-20.0000
G00 Z3.0000
G01 Z4.0000 F300
G01 X-1.5576 Y1.8866 F819
G02 X1.9500 Y1.4764 I1.5583 J-1.8767
G01 Y-1.4764
G02 X-2.4353 Y-0.2603 I-1.9524 J1.4743
G01 X-2.4492 Y0.0000
G01 X-2.4353 Y0.2603
G02 X-1.5576 Y1.8866 I2.4157 J-0.2538
G01 X-1.4895 Y1.8000
G00 Z-20.0000
G00 X-1.4891 Y-1.8000
G00 Z3.5000
G01 Z4.5000 F300
G01 X1.4893 F819
G01 X1.8392 Y-0.9000
G01 X-2.1559
G01 X-2.3386 Y0.0000
G01 X1.8395
G01 X1.8398 Y0.9000
G01 X-2.1557
G01 X-1.4895 Y1.8000
G01 X1.4897
G00 Z-20.0000
G00 Z3.5000
G01 Z4.5000 F300
G01 X1.5623 Y1.8829 F819
G02 X1.9500 Y1.4764 I-1.1329 J-1.4688
G01 Y-1.4764
G02 X-2.4353 Y-0.2603 I-1.9524 J1.4743
G01 X-2.4492 Y0.0000
G01 X-2.4353 Y0.2603
G02 X1.5623 Y1.8829 I2.4329 J-0.2583
G01 X1.4897 Y1.8000
G00 Z-20.0000
G00 X1.4893 Y-1.8000
G00 Z4.0000
G01 Z5.0000 F300
G01 X-1.4891 F819
G01 X-2.1559 Y-0.9000
G01 X1.8392
G01 X1.8395 Y0.0000
G01 X-2.3386
G01 X-2.1557 Y0.9000
G01 X1.8398
G01 X1.4897 Y1.8000
G01 X-1.4895
G00 Z-20.0000
G00 Z4.0000
G01 Z5.0000 F300
G01 X-1.5576 Y1.8866 F819
G02 X1.9500 Y1.4764 I1.5583 J-1.8767
G01 Y-1.4764
G02 X-2.4353 Y-0.2603 I-1.9524 J1.4743
G01 X-2.4492 Y0.0000
G01 X-2.4353 Y0.2603
G02 X-1.5576 Y1.8866 I2.4157 J-0.2538
G01 X-1.4895 Y1.8000
G00 Z-20.0000
G00 X-1.4891 Y-1.8000
G00 Z4.5000
G01 Z5.5000 F300
G01 X1.4893 F819
G01 X1.8392 Y-0.9000
G01 X-2.1559
G01 X-2.3386 Y0.0000
G01 X1.8395
G01 X1.8398 Y0.9000
G01 X-2.1557
G01 X-1.4895 Y1.8000
G01 X1.4897
G00 Z-20.0000
G00 Z4.5000
G01 Z5.5000 F300
G01 X1.5623 Y1.8829 F819
G02 X1.9500 Y1.4764 I-1.1329 J-1.4688
G01 Y-1.4764
G02 X-2.4353 Y-0.2603 I-1.9524 J1.4743
G01 X-2.4492 Y0.0000
G01 X-2.4353 Y0.2603
G02 X1.5623 Y1.8829 I2.4329 J-0.2583
G01 X1.4897 Y1.8000
G00 Z-20.0000
G00 X1.4893 Y-1.8000
G00 Z5.0000
G01 Z6.0000 F300
G01 X-1.4891 F819
G01 X-2.1559 Y-0.9000
G01 X1.8392
G01 X1.8395 Y0.0000
G01 X-2.3386
G01 X-2.1557 Y0.9000
G01 X1.8398
G01 X1.4897 Y1.8000
G01 X-1.4895
G00 Z-20.0000
G00 Z5.0000
G01 Z6.0000 F300
G01 X-1.5576 Y1.8866 F819
G02 X1.9500 Y1.4764 I1.5583 J-1.8767
G01 Y-1.4764
G02 X-2.4353 Y-0.2603 I-1.9524 J1.4743
G01 X-2.4492 Y0.0000
G01 X-2.4353 Y0.2603
G02 X-1.5576 Y1.8866 I2.4157 J-0.2538
G01 X-1.4895 Y1.8000
G00 Z-20.0000
G00 X-1.4891 Y-1.8000
G00 Z5.5000
G01 Z6.5000 F300
G01 X1.4893 F819
G01 X1.8392 Y-0.9000
G01 X-2.1559
G01 X-2.3386 Y0.0000
G01 X1.8395
G01 X1.8398 Y0.9000
G01 X-2.1557
G01 X-1.4895 Y1.8000
G01 X1.4897
G00 Z-20.0000
G00 Z5.5000
G01 Z6.5000 F300
G01 X1.5623 Y1.8829 F819
G02 X1.9500 Y1.4764 I-1.1329 J-1.4688
G01 Y-1.4764
G02 X-2.4353 Y-0.2603 I-1.9524 J1.4743
G01 X-2.4492 Y0.0000
G01 X-2.4353 Y0.2603
G02 X1.5623 Y1.8829 I2.4329 J-0.2583
G01 X1.4897 Y1.8000
G00 Z-20.0000


(No. 2: Mill Centre Hole)
G00 X-1.7996 Y-1.6614 Z-20.0000
G00 Z-0.5000
G01 Z0.5000 F300
G01 X-1.8364 Y-1.6953 F410
G02 X-2.4993 Y0.0000 I1.8364 J1.6953
G01 X-2.4851 Y0.2657
G02 X2.0000 Y1.4929 I2.4826 J-0.2636
G01 Y-1.4929
G02 X-1.8364 Y-1.6953 I-2.0021 J1.4886
G01 X-1.7996 Y-1.6614
G01 Z1.0000 F300
G01 X-1.8364 Y-1.6953 F410
G02 X-2.4993 Y0.0000 I1.8364 J1.6953
G01 X-2.4851 Y0.2657
G02 X2.0000 Y1.4929 I2.4826 J-0.2636
G01 Y-1.4929
G02 X-1.8364 Y-1.6953 I-2.0021 J1.4886
G01 X-1.7996 Y-1.6614
G01 Z1.5000 F300
G01 X-1.8364 Y-1.6953 F410
G02 X-2.4993 Y0.0000 I1.8364 J1.6953
G01 X-2.4851 Y0.2657
G02 X2.0000 Y1.4929 I2.4826 J-0.2636
G01 Y-1.4929
G02 X-1.8364 Y-1.6953 I-2.0021 J1.4886
G01 X-1.7996 Y-1.6614
G01 Z2.0000 F300
G01 X-1.8364 Y-1.6953 F410
G02 X-2.4993 Y0.0000 I1.8364 J1.6953
G01 X-2.4851 Y0.2657
G02 X2.0000 Y1.4929 I2.4826 J-0.2636
G01 Y-1.4929
G02 X-1.8364 Y-1.6953 I-2.0021 J1.4886
G01 X-1.7996 Y-1.6614
G01 Z2.5000 F300
G01 X-1.8364 Y-1.6953 F410
G02 X-2.4993 Y0.0000 I1.8364 J1.6953
G01 X-2.4851 Y0.2657
G02 X2.0000 Y1.4929 I2.4826 J-0.2636
G01 Y-1.4929
G02 X-1.8364 Y-1.6953 I-2.0021 J1.4886
G01 X-1.7996 Y-1.6614
G01 Z3.0000 F300
G01 X-1.8364 Y-1.6953 F410
G02 X-2.4993 Y0.0000 I1.8364 J1.6953
G01 X-2.4851 Y0.2657
G02 X2.0000 Y1.4929 I2.4826 J-0.2636
G01 Y-1.4929
G02 X-1.8364 Y-1.6953 I-2.0021 J1.4886
G01 X-1.7996 Y-1.6614
G01 Z3.5000 F300
G01 X-1.8364 Y-1.6953 F410
G02 X-2.4993 Y0.0000 I1.8364 J1.6953
G01 X-2.4851 Y0.2657
G02 X2.0000 Y1.4929 I2.4826 J-0.2636
G01 Y-1.4929
G02 X-1.8364 Y-1.6953 I-2.0021 J1.4886
G01 X-1.7996 Y-1.6614
G01 Z4.0000 F300
G01 X-1.8364 Y-1.6953 F410
G02 X-2.4993 Y0.0000 I1.8364 J1.6953
G01 X-2.4851 Y0.2657
G02 X2.0000 Y1.4929 I2.4826 J-0.2636
G01 Y-1.4929
G02 X-1.8364 Y-1.6953 I-2.0021 J1.4886
G01 X-1.7996 Y-1.6614
G01 Z4.5000 F300
G01 X-1.8364 Y-1.6953 F410
G02 X-2.4993 Y0.0000 I1.8364 J1.6953
G01 X-2.4851 Y0.2657
G02 X2.0000 Y1.4929 I2.4826 J-0.2636
G01 Y-1.4929
G02 X-1.8364 Y-1.6953 I-2.0021 J1.4886
G01 X-1.7996 Y-1.6614
G01 Z5.0000 F300
G01 X-1.8364 Y-1.6953 F410
G02 X-2.4993 Y0.0000 I1.8364 J1.6953
G01 X-2.4851 Y0.2657
G02 X2.0000 Y1.4929 I2.4826 J-0.2636
G01 Y-1.4929
G02 X-1.8364 Y-1.6953 I-2.0021 J1.4886
G01 X-1.7996 Y-1.6614
G01 Z5.5000 F300
G01 X-1.8364 Y-1.6953 F410
G02 X-2.4993 Y0.0000 I1.8364 J1.6953
G01 X-2.4851 Y0.2657
G02 X2.0000 Y1.4929 I2.4826 J-0.2636
G01 Y-1.4929
G02 X-1.8364 Y-1.6953 I-2.0021 J1.4886
G01 X-1.7996 Y-1.6614
G01 Z6.0000 F300
G01 X-1.8364 Y-1.6953 F410
G02 X-2.4993 Y0.0000 I1.8364 J1.6953
G01 X-2.4851 Y0.2657
G02 X2.0000 Y1.4929 I2.4826 J-0.2636
G01 Y-1.4929
G02 X-1.8364 Y-1.6953 I-2.0021 J1.4886
G01 X-1.7996 Y-1.6614
G01 Z6.5000 F300
G01 X-1.8364 Y-1.6953 F410
G02 X-2.4993 Y0.0000 I1.8364 J1.6953
G01 X-2.4851 Y0.2657
G02 X2.0000 Y1.4929 I2.4826 J-0.2636
G01 Y-1.4929
G02 X-1.8364 Y-1.6953 I-2.0021 J1.4886
G01 X-1.7996 Y-1.6614


(No. 3: Drill Tie Hole 1)
M05
T3 M06 (Change tool: HSS Twist Drill, 0.5mm R)
M03
G00 X-1.7996 Y-1.6614 Z-20.0000
G00 X11.0000 Y0.0000
G00 Z-0.5000
G01 Z1.0000 F300 S9000
G00 Z-0.5000
G00 Z0.5000
G01 Z1.5000
G00 Z-20.0000


(No. 4: Drill Tie Hole 2)
M05
T3 M06 (Change tool: HSS Twist Drill, 0.5mm F)
M03
G00 X11.0000 Y0.0000 Z1.0000
G01 Z2.0000 F30
G00 Z1.0000
G00 Z1.5000
G01 Z2.5000
G00 Z-20.0000
G00 X0.0000

M05
M30
%

